; generated by PrusaSlicer 2.6.0+win64 on 2023-09-15 at 18:34:28 UTC

; 

; external perimeters extrusion width = 0.42mm
; perimeters extrusion width = 0.44mm
; infill extrusion width = 0.44mm
; solid infill extrusion width = 0.44mm
; top infill extrusion width = 0.44mm
; first layer extrusion width = 0.44mm

;TYPE:Custom
G90 ; use absolute coordinates
M83 ; extruder relative mode
M140 S60 ; set final bed temp
M104 S150 ; set temporary nozzle temp to prevent oozing during homing
G4 S10 ; allow partial nozzle warmup
G28 ; home all axis
G1 Z50 F240
G1 X2 Y10 F3000
M104 S210 ; set final nozzle temp
M190 S60 ; wait for bed temp to stabilize
M109 S210 ; wait for nozzle temp to stabilize
G1 Z0.28 F240
G92 E0
G1 Y140 E10 F1500 ; prime the nozzle
G1 X2.3 F5000
G92 E0
G1 Y10 E10 F1200 ; prime the nozzle
G92 E0
G21 ; set units to millimeters
G90 ; use absolute coordinates
M83 ; use relative distances for extrusion
; Filament gcode
M107
;LAYER_CHANGE
;Z:0.2
;HEIGHT:0.2
;BEFORE_LAYER_CHANGE
G92 E0
;0.2


G1 E-5 F3600
G1 Z.2 F9000
;AFTER_LAYER_CHANGE
;0.2
G1 X12.352 Y70.859
G1 E5 F2400
M204 S500
;TYPE:Skirt/Brim
;WIDTH:0.44
G1 F1200
G1 X13.352 Y70.708 E.03339
G1 X206.648 Y70.708 E6.38211
G1 X208.236 Y71.102 E.05402
G1 X209.05 Y71.703 E.03341
G1 X210.807 Y73.46 E.08204
G1 X211.651 Y74.862 E.05403
G1 X211.802 Y75.862 E.03339
G1 X211.802 Y144.138 E2.25429
G1 X211.408 Y145.726 E.05402
G1 X210.807 Y146.54 E.03341
G1 X209.05 Y148.297 E.08204
G1 X207.648 Y149.141 E.05403
G1 X206.648 Y149.292 E.03339
G1 X13.352 Y149.292 E6.38211
G1 X11.764 Y148.898 E.05402
G1 X10.95 Y148.297 E.03341
G1 X9.193 Y146.54 E.08204
G1 X8.349 Y145.138 E.05403
G1 X8.198 Y144.138 E.03339
G1 X8.198 Y75.862 E2.25429
G1 X8.592 Y74.274 E.05402
G1 X9.193 Y73.46 E.03341
G1 X10.95 Y71.703 E.08204
G1 X12.301 Y70.89 E.05206
G1 E-3.5 F3600
;WIPE_START
G1 F7200
G1 X13.352 Y70.708 E-.50665
G1 X15.443 Y70.708 E-.99335
;WIPE_END
G1 X13.78 Y74.617 F9000
G1 E5 F2400
G1 F1200
G1 X14.25 Y74.524 E.01582
G1 X205.792 Y74.528 E6.3242
G1 X206.259 Y74.631 E.01579
G1 X206.731 Y74.849 E.01717
G1 X207.458 Y75.507 E.03238
G1 X207.787 Y76.022 E.02018
G1 X207.986 Y76.726 E.02415
G1 X207.986 Y143.238 E2.19605
G1 X207.855 Y143.813 E.01947
G1 X207.499 Y144.451 E.02412
G1 X206.917 Y145.021 E.0269
G1 X206.22 Y145.383 E.02593
G1 X205.75 Y145.476 E.01582
G1 X14.252 Y145.476 E6.32275
G1 X13.677 Y145.345 E.01947
G1 X13.039 Y144.989 E.02412
G1 X12.469 Y144.407 E.0269
G1 X12.107 Y143.71 E.02593
G1 X12.014 Y143.24 E.01582
G1 X12.014 Y76.762 E2.19492
G1 X12.145 Y76.187 E.01947
G1 X12.501 Y75.549 E.02412
G1 X13.083 Y74.979 E.0269
G1 X13.727 Y74.645 E.02395
G1 X13.889 Y75 F9000
G1 F1200
G1 X14.271 Y74.921 E.01288
G1 X205.769 Y74.925 E6.32275
G1 X206.148 Y75.012 E.01284
G1 X206.533 Y75.194 E.01406
G1 X207.17 Y75.781 E.0286
G1 X207.414 Y76.162 E.01494
G1 X207.589 Y76.755 E.02041
G1 X207.589 Y143.217 E2.1944
G1 X207.493 Y143.649 E.01461
G1 X207.196 Y144.192 E.02043
G1 X206.703 Y144.686 E.02304
G1 X206.111 Y145 E.02213
G1 X205.729 Y145.079 E.01288
G1 X14.273 Y145.079 E6.32136
G1 X13.841 Y144.983 E.01461
G1 X13.298 Y144.686 E.02043
G1 X12.804 Y144.193 E.02304
G1 X12.49 Y143.601 E.02213
G1 X12.411 Y143.219 E.01288
G1 X12.411 Y76.783 E2.19354
G1 X12.507 Y76.351 E.01461
G1 X12.804 Y75.808 E.02043
G1 X13.297 Y75.314 E.02304
G1 X13.836 Y75.028 E.02015
G1 X14.001 Y75.382 F9000
G1 F1200
G1 X14.294 Y75.318 E.0099
G1 X205.746 Y75.322 E6.32123
G1 X205.997 Y75.38 E.00851
G1 X206.334 Y75.539 E.0123
G1 X206.88 Y76.053 E.02476
G1 X207.044 Y76.307 E.00998
G1 X207.192 Y76.787 E.01658
G1 X207.192 Y143.196 E2.19265
G1 X207.128 Y143.489 E.0099
G1 X206.894 Y143.933 E.01657
G1 X206.443 Y144.384 E.02106
G1 X205.999 Y144.618 E.01657
G1 X205.706 Y144.682 E.0099
G1 X14.294 Y144.682 E6.31991
G1 X14.001 Y144.618 E.0099
G1 X13.557 Y144.384 E.01657
G1 X13.106 Y143.933 E.02106
G1 X12.872 Y143.489 E.01657
G1 X12.808 Y143.196 E.0099
G1 X12.808 Y76.804 E2.19208
G1 X12.872 Y76.511 E.0099
G1 X13.106 Y76.067 E.01657
G1 X13.557 Y75.616 E.02106
G1 X13.948 Y75.41 E.01459
G1 X14.126 Y75.763 F9000
G1 F1200
G1 X14.314 Y75.715 E.00641
G1 X205.723 Y75.719 E6.31981
G1 X205.846 Y75.748 E.00417
G1 X206.134 Y75.884 E.01052
G1 X206.588 Y76.323 E.02085
G1 X206.676 Y76.457 E.00529
G1 X206.795 Y76.82 E.01261
G1 X206.795 Y143.176 E2.1909
G1 X206.761 Y143.336 E.0054
G1 X206.589 Y143.676 E.01258
G1 X206.186 Y144.079 E.01882
G1 X205.846 Y144.251 E.01258
G1 X205.687 Y144.285 E.00537
G1 X14.314 Y144.285 E6.31862
G1 X14.154 Y144.251 E.0054
G1 X13.814 Y144.079 E.01258
G1 X13.411 Y143.676 E.01882
G1 X13.239 Y143.336 E.01258
G1 X13.205 Y143.177 E.00537
G1 X13.205 Y76.823 E2.19083
G1 X13.239 Y76.664 E.00537
G1 X13.411 Y76.324 E.01258
G1 X13.814 Y75.921 E.01882
G1 X14.073 Y75.79 E.00958
G1 X14.241 Y76.146 F9000
G1 F1200
G1 X14.332 Y76.112 E.00321
G1 X205.702 Y76.119 E6.31852
G1 X205.932 Y76.228 E.0084
G1 X206.293 Y76.589 E.01686
G1 X206.398 Y76.857 E.0095
G1 X206.391 Y143.192 E2.1902
G1 X206.282 Y143.422 E.0084
G1 X205.932 Y143.772 E.01634
G1 X205.668 Y143.888 E.00952
G1 X14.298 Y143.881 E6.31852
G1 X14.068 Y143.772 E.0084
G1 X13.718 Y143.422 E.01634
G1 X13.602 Y143.158 E.00952
G1 X13.602 Y76.842 E2.18958
G1 X13.718 Y76.578 E.00952
G1 X14.068 Y76.228 E.01634
G1 X14.187 Y76.172 E.00434
G1 X14.336 Y76.532 F9000
G1 F1200
G1 X14.391 Y76.509 E.00197
G1 X205.609 Y76.509 E6.3135
G1 X205.682 Y76.54 E.00262
G1 X205.97 Y76.828 E.01345
G1 X206.001 Y76.901 E.00262
G1 X206.001 Y143.099 E2.18568
G1 X205.97 Y143.172 E.00262
G1 X205.682 Y143.46 E.01345
G1 X205.609 Y143.491 E.00262
G1 X14.391 Y143.491 E6.3135
G1 X14.318 Y143.46 E.00262
G1 X14.03 Y143.172 E.01345
G1 X13.999 Y143.099 E.00262
G1 X13.999 Y76.901 E2.18568
G1 X14.03 Y76.828 E.00262
G1 X14.289 Y76.568 E.01212
G1 X14.513 Y76.906 F9000
G1 F1200
G1 X205.487 Y76.906 E6.30545
G1 X205.604 Y77.023 E.00546
G1 X205.604 Y142.977 E2.17762
G1 X205.487 Y143.094 E.00546
G1 X14.513 Y143.094 E6.30545
G1 X14.396 Y142.977 E.00546
G1 X14.396 Y77.023 E2.17762
G1 X14.47 Y76.949 E.00346
G1 X15.609 Y78.119 F9000
;TYPE:Perimeter
;WIDTH:0.439999
G1 F1200
G1 X204.391 Y78.119 E6.23306
G1 X204.391 Y141.881 E2.10525
G1 X15.609 Y141.881 E6.23306
G1 X15.609 Y78.179 E2.10326
G1 X15.212 Y77.722 F9000
G1 F1200
G1 X204.788 Y77.722 E6.25928
G1 X204.788 Y142.278 E2.13146
G1 X15.212 Y142.278 E6.25928
G1 X15.212 Y77.782 E2.12948
G1 X14.815 Y77.325 F9000
;TYPE:External perimeter
G1 F1200
G1 X205.185 Y77.325 E6.28549
G1 X205.185 Y142.675 E2.15768
G1 X14.815 Y142.675 E6.28549
G1 X14.815 Y77.385 E2.1557
G1 X15.213 Y77.369 F9000
G1 E-3.5 F3600
;WIPE_START
G1 F7200
G1 X17.973 Y77.384 E-1.5
;WIPE_END
G1 X197.865 Y115.059 F9000
G1 E5 F2400
;TYPE:Perimeter
G1 F1200
G1 X198.102 Y114.726 E.0135
G1 X198.494 Y114.379 E.01729
G1 X199.008 Y114.1 E.01931
G1 X199.484 Y113.961 E.01637
G1 X199.977 Y113.919 E.01634
G1 X200.469 Y113.976 E.01635
G1 X200.94 Y114.128 E.01634
G1 X201.371 Y114.372 E.01635
G1 X201.745 Y114.696 E.01634
G1 X202.048 Y115.087 E.01633
G1 X202.268 Y115.531 E.01636
G1 X202.399 Y116.083 E.01873
G1 X202.412 Y116.603 E.01717
G1 X202.308 Y117.162 E.01877
G1 X202.111 Y117.616 E.01634
G1 X201.828 Y118.022 E.01634
G1 X201.471 Y118.364 E.01632
G1 X201.052 Y118.629 E.01637
G1 X200.589 Y118.805 E.01635
G1 X200.101 Y118.886 E.01633
G1 X199.502 Y118.855 E.0198
G1 X198.96 Y118.691 E.0187
G1 X198.629 Y118.52 E.0123
G1 X198.214 Y118.199 E.01732
G1 X197.885 Y117.809 E.01685
G1 X197.612 Y117.279 E.01968
G1 X197.486 Y116.803 E.01626
G1 X197.465 Y116.246 E.0184
G1 X197.555 Y115.724 E.01749
G1 X197.769 Y115.194 E.01887
G1 X197.83 Y115.108 E.00348
G1 X198.191 Y115.279 F9000
G1 F1200
G1 X198.43 Y114.958 E.01321
G1 X198.769 Y114.674 E.0146
G1 X199.194 Y114.456 E.01577
G1 X199.533 Y114.355 E.01168
G1 X199.947 Y114.315 E.01373
G1 X200.361 Y114.358 E.01374
G1 X200.758 Y114.482 E.01373
G1 X201.123 Y114.682 E.01374
G1 X201.441 Y114.951 E.01375
G1 X201.7 Y115.277 E.01375
G1 X201.888 Y115.648 E.01373
G1 X202.002 Y116.093 E.01517
G1 X202.015 Y116.613 E.01717
G1 X201.924 Y117.064 E.01519
G1 X201.692 Y117.545 E.01763
G1 X201.431 Y117.87 E.01376
G1 X201.111 Y118.136 E.01374
G1 X200.745 Y118.334 E.01374
G1 X200.347 Y118.455 E.01373
G1 X199.933 Y118.495 E.01373
G1 X199.519 Y118.452 E.01374
G1 X199.121 Y118.328 E.01376
G1 X198.828 Y118.177 E.01088
G1 X198.439 Y117.859 E.01659
G1 X198.18 Y117.533 E.01375
G1 X197.992 Y117.162 E.01373
G1 X197.881 Y116.762 E.01371
G1 X197.857 Y116.313 E.01485
G1 X197.947 Y115.792 E.01746
G1 X198.156 Y115.327 E.01683
G1 X198.505 Y115.505 F9000
;TYPE:External perimeter
G1 F1200
G1 X198.712 Y115.238 E.01115
G1 X198.967 Y115.018 E.01112
G1 X199.32 Y114.833 E.01316
G1 X199.582 Y114.749 E.00908
G1 X199.918 Y114.711 E.01116
G1 X200.254 Y114.74 E.01114
G1 X200.577 Y114.835 E.01112
G1 X200.876 Y114.993 E.01117
G1 X201.137 Y115.206 E.01112
G1 X201.351 Y115.467 E.01114
G1 X201.509 Y115.765 E.01114
G1 X201.605 Y116.103 E.0116
G1 X201.618 Y116.623 E.01717
G1 X201.525 Y117.003 E.01292
G1 X201.375 Y117.305 E.01113
G1 X201.168 Y117.572 E.01115
G1 X200.913 Y117.792 E.01112
G1 X200.619 Y117.957 E.01113
G1 X200.298 Y118.061 E.01114
G1 X199.962 Y118.099 E.01116
G1 X199.626 Y118.07 E.01114
G1 X199.303 Y117.975 E.01112
G1 X199.028 Y117.834 E.0102
G1 X198.743 Y117.604 E.01209
G1 X198.529 Y117.343 E.01114
G1 X198.323 Y116.888 E.01649
G1 X198.245 Y116.407 E.01609
G1 X198.338 Y115.859 E.01835
G1 X198.479 Y115.559 E.01094
G1 X198.339 Y115.211 F9000
G1 E-3.5 F3600
;WIPE_START
G1 F7200
G1 X198.712 Y115.238 E-.18841
G1 X198.967 Y115.018 E-.15997
G1 X199.32 Y114.833 E-.18931
G1 X199.582 Y114.749 E-.13069
G1 X199.918 Y114.711 E-.16062
G1 X200.254 Y114.74 E-.16019
G1 X200.577 Y114.835 E-.15992
G1 X200.876 Y114.993 E-.16063
G1 X201.137 Y115.206 E-.16002
G1 X201.177 Y115.255 E-.03024
;WIPE_END
G1 X194.942 Y114.51 F9000
G1 E5 F2400
;TYPE:Perimeter
G1 F1200
G1 X194.802 Y115.065 E.0189
G1 X194.618 Y115.594 E.01849
G1 X194.252 Y116.267 E.02529
G1 X193.648 Y117.017 E.03179
G1 X193.186 Y117.41 E.02003
G1 X192.753 Y117.734 E.01786
G1 X192.06 Y118.089 E.02571
G1 X191.139 Y118.369 E.03178
G1 X190.397 Y118.458 E.02467
G1 X189.46 Y118.403 E.03099
G1 X188.528 Y118.161 E.03179
G1 X188.033 Y117.929 E.01805
G1 X187.586 Y117.696 E.01664
G1 X187 Y117.237 E.02458
G1 X186.741 Y116.999 E.01161
G1 X186.263 Y116.43 E.02454
G1 X185.936 Y115.87 E.02141
;WIDTH:0.43946
G1 X185.718 Y115.418 E.01655
;WIDTH:0.439664
G1 X185.555 Y114.912 E.01754
;WIDTH:0.439999
G1 X185.444 Y114.486 E.01453
G1 X185.368 Y113.724 E.02528
G1 X185.422 Y112.981 E.0246
G1 X185.512 Y112.477 E.0169
G1 X185.709 Y111.838 E.02208
G1 X186.152 Y110.983 E.03179
G1 X186.718 Y110.278 E.02985
G1 X187.028 Y109.991 E.01395
G1 X187.496 Y109.618 E.01976
G1 X188.145 Y109.247 E.02468
G1 X189.03 Y108.934 E.03099
G1 X189.556 Y108.848 E.0176
G1 X190.086 Y108.787 E.01761
G1 X190.944 Y108.847 E.0284
G1 X191.876 Y109.089 E.03179
G1 X192.742 Y109.51 E.03179
G1 X193.507 Y110.095 E.0318
G1 X194.141 Y110.82 E.0318
G1 X194.475 Y111.393 E.0219
G1 X194.713 Y111.898 E.01843
G1 X194.921 Y112.57 E.02323
G1 X194.994 Y113.105 E.01783
G1 X195.04 Y113.681 E.01908
G1 X194.956 Y114.452 E.02561
G1 X194.573 Y114.37 F9000
G1 F1200
G1 X194.423 Y114.948 E.01972
G1 X194.27 Y115.404 E.01588
G1 X193.903 Y116.077 E.02531
G1 X193.344 Y116.761 E.02917
G1 X192.561 Y117.386 E.03308
G1 X191.879 Y117.736 E.02531
G1 X191.031 Y117.987 E.0292
G1 X190.357 Y118.063 E.02239
G1 X189.49 Y118.007 E.02869
G1 X188.635 Y117.779 E.02922
G1 X187.949 Y117.44 E.02526
G1 X187.655 Y117.251 E.01154
G1 X187.145 Y116.844 E.02154
G1 X186.654 Y116.278 E.02474
G1 X186.428 Y115.942 E.01337
G1 X186.134 Y115.404 E.02024
G1 X185.839 Y114.446 E.0331
G1 X185.763 Y113.684 E.02528
G1 X185.817 Y113.021 E.02196
G1 X185.891 Y112.594 E.01431
G1 X186.088 Y111.955 E.02208
G1 X186.501 Y111.173 E.0292
G1 X187.023 Y110.533 E.02727
G1 X187.744 Y109.928 E.03108
G1 X188.335 Y109.596 E.02238
G1 X189.156 Y109.31 E.0287
G1 X190.032 Y109.189 E.0292
G1 X190.914 Y109.243 E.02918
G1 X191.769 Y109.471 E.02922
G1 X192.561 Y109.864 E.02919
G1 X193.259 Y110.406 E.02918
G1 X193.836 Y111.075 E.02917
G1 X194.126 Y111.583 E.01931
G1 X194.334 Y112.015 E.01583
G1 X194.541 Y112.687 E.02322
G1 X194.629 Y113.441 E.02506
G1 X194.623 Y113.866 E.01403
G1 X194.579 Y114.31 E.01473
G1 X194.178 Y114.327 F9000
;TYPE:External perimeter
G1 F1200
G1 X193.921 Y115.214 E.03049
G1 X193.555 Y115.887 E.02529
G1 X193.04 Y116.506 E.02659
G1 X192.458 Y116.975 E.02468
G1 X191.698 Y117.382 E.02846
G1 X190.923 Y117.604 E.02662
G1 X190.318 Y117.668 E.02009
G1 X189.519 Y117.611 E.02645
G1 X188.743 Y117.397 E.02658
G1 X188.13 Y117.087 E.02268
G1 X187.496 Y116.616 E.02608
G1 X186.959 Y116.023 E.02641
G1 X186.634 Y115.491 E.02058
G1 X186.468 Y115.178 E.0117
G1 X186.242 Y114.445 E.02533
G1 X186.158 Y113.645 E.02656
G1 X186.212 Y113.06 E.0194
G1 X186.271 Y112.711 E.01169
G1 X186.468 Y112.072 E.02208
G1 X186.849 Y111.363 E.02658
G1 X187.327 Y110.788 E.02469
G1 X187.992 Y110.238 E.02849
G1 X188.525 Y109.945 E.02008
G1 X189.283 Y109.687 E.02644
G1 X190.081 Y109.583 E.02657
G1 X190.885 Y109.639 E.02661
G1 X191.661 Y109.853 E.02658
G1 X192.379 Y110.217 E.02658
G1 X193.012 Y110.716 E.02661
G1 X193.532 Y111.331 E.02659
G1 X193.955 Y112.132 E.02991
G1 X194.162 Y112.804 E.02322
G1 X194.234 Y113.481 E.02248
G1 X194.182 Y114.267 E.02601
G1 X194.482 Y114.587 F9000
G1 E-3.5 F3600
;WIPE_START
G1 F7200
G1 X193.921 Y115.214 E-.4666
G1 X193.555 Y115.887 E-.36389
G1 X193.04 Y116.506 E-.38248
G1 X192.569 Y116.885 E-.28703
;WIPE_END
G1 X185.305 Y115.435 F9000
G1 E5 F2400
;TYPE:Perimeter
;WIDTH:0.439664
G1 F1200
G1 X185.351 Y115.533 E.00357
;WIDTH:0.43946
G1 X185.484 Y116.01 E.01633
;WIDTH:0.439999
G1 X185.514 Y116.504 E.01634
G1 X185.446 Y116.994 E.01633
G1 X185.275 Y117.472 E.01676
G1 X184.961 Y117.961 E.01919
G1 X184.56 Y118.364 E.01877
G1 X184.128 Y118.637 E.01687
G1 X183.612 Y118.825 E.01813
G1 X183.067 Y118.894 E.01814
G1 X182.565 Y118.85 E.01664
G1 X182.07 Y118.701 E.01707
G1 X181.599 Y118.438 E.01781
G1 X181.225 Y118.114 E.01634
G1 X180.922 Y117.723 E.01633
G1 X180.702 Y117.279 E.01636
G1 X180.573 Y116.772 E.01727
G1 X180.559 Y116.241 E.01754
G1 X180.588 Y115.937 E.01008
G1 X180.729 Y115.462 E.01636
G1 X180.962 Y115.025 E.01635
G1 X181.276 Y114.643 E.01633
G1 X181.66 Y114.33 E.01636
G1 X182.098 Y114.1 E.01633
G1 X182.574 Y113.961 E.01637
G1 X183.067 Y113.919 E.01634
G1 X183.635 Y113.997 E.01893
G1 X184.149 Y114.19 E.01813
G1 X184.461 Y114.372 E.01193
G1 X184.865 Y114.73 E.01782
G1 X185.138 Y115.087 E.01484
;WIDTH:0.439664
G1 X185.279 Y115.381 E.01076
G1 X184.95 Y115.592 F9000
;WIDTH:0.439999
G1 F1200
G1 X185.09 Y116.049 E.01578
G1 X185.119 Y116.464 E.01374
G1 X185.066 Y116.877 E.01375
G1 X184.91 Y117.309 E.01516
G1 X184.627 Y117.746 E.01719
G1 X184.261 Y118.097 E.01674
G1 X183.835 Y118.334 E.0161
G1 X183.437 Y118.455 E.01373
G1 X183.023 Y118.495 E.01373
G1 X182.565 Y118.44 E.01523
G1 X182.211 Y118.328 E.01226
G1 X181.847 Y118.128 E.01371
G1 X181.529 Y117.859 E.01375
G1 X181.27 Y117.533 E.01375
G1 X181.082 Y117.162 E.01373
G1 X180.967 Y116.7 E.01572
G1 X180.955 Y116.197 E.01661
G1 X181.077 Y115.658 E.01825
G1 X181.278 Y115.265 E.01457
G1 X181.539 Y114.94 E.01376
G1 X181.859 Y114.674 E.01374
G1 X182.225 Y114.476 E.01374
G1 X182.623 Y114.355 E.01373
G1 X183.037 Y114.315 E.01373
G1 X183.528 Y114.379 E.01635
G1 X183.968 Y114.543 E.0155
G1 X184.213 Y114.682 E.0093
G1 X184.56 Y114.986 E.01523
G1 X184.79 Y115.277 E.01225
G1 X184.923 Y115.539 E.0097
G1 X184.599 Y115.765 F9000
;TYPE:External perimeter
G1 F1200
G1 X184.694 Y116.089 E.01115
G1 X184.708 Y116.587 E.01645
G1 X184.591 Y117.067 E.01631
G1 X184.294 Y117.531 E.01819
G1 X184.003 Y117.792 E.01291
G1 X183.709 Y117.957 E.01113
G1 X183.388 Y118.061 E.01114
G1 X183.052 Y118.099 E.01116
G1 X182.672 Y118.058 E.01262
G1 X182.393 Y117.975 E.00961
G1 X182.094 Y117.817 E.01117
G1 X181.833 Y117.604 E.01112
G1 X181.619 Y117.343 E.01114
G1 X181.461 Y117.045 E.01114
G1 X181.364 Y116.69 E.01215
G1 X181.352 Y116.187 E.01661
G1 X181.445 Y115.807 E.01292
G1 X181.595 Y115.505 E.01113
G1 X181.802 Y115.238 E.01115
G1 X182.057 Y115.018 E.01112
