; generated by PrusaSlicer 2.6.0+win64 on 2023-09-21 at 20:07:53 UTC

; 

; external perimeters extrusion width = 0.42mm
; perimeters extrusion width = 0.44mm
; infill extrusion width = 0.44mm
; solid infill extrusion width = 0.44mm
; top infill extrusion width = 0.44mm
; first layer extrusion width = 0.44mm

;TYPE:Custom
G90 ; use absolute coordinates
M83 ; extruder relative mode
M140 S60 ; set final bed temp
M104 S150 ; set temporary nozzle temp to prevent oozing during homing
G4 S10 ; allow partial nozzle warmup
G28 ; home all axis
G1 Z50 F240
G1 X2 Y10 F3000
M104 S210 ; set final nozzle temp
M190 S60 ; wait for bed temp to stabilize
M109 S210 ; wait for nozzle temp to stabilize
G1 Z0.28 F240
G92 E0
G1 Y140 E10 F1500 ; prime the nozzle
G1 X2.3 F5000
G92 E0
G1 Y10 E10 F1200 ; prime the nozzle
G92 E0
G21 ; set units to millimeters
G90 ; use absolute coordinates
M83 ; use relative distances for extrusion
; Filament gcode
M107
;LAYER_CHANGE
;Z:0.2
;HEIGHT:0.2
;BEFORE_LAYER_CHANGE
G92 E0
;0.2


G1 E-5 F3600
G1 Z.2 F9000
;AFTER_LAYER_CHANGE
;0.2
G1 X12.352 Y70.859
G1 E5 F2400
M204 S500
;TYPE:Skirt/Brim
;WIDTH:0.44
G1 F1200
G1 X13.352 Y70.708 E.03339
G1 X206.648 Y70.708 E6.38211
G1 X208.236 Y71.102 E.05402
G1 X209.05 Y71.703 E.03341
G1 X210.807 Y73.46 E.08204
G1 X211.651 Y74.862 E.05403
G1 X211.802 Y75.862 E.03339
G1 X211.802 Y144.138 E2.25429
G1 X211.408 Y145.726 E.05402
G1 X210.807 Y146.54 E.03341
G1 X209.05 Y148.297 E.08204
G1 X207.648 Y149.141 E.05403
G1 X206.648 Y149.292 E.03339
G1 X13.352 Y149.292 E6.38211
G1 X11.764 Y148.898 E.05402
G1 X10.95 Y148.297 E.03341
G1 X9.193 Y146.54 E.08204
G1 X8.349 Y145.138 E.05403
G1 X8.198 Y144.138 E.03339
G1 X8.198 Y75.862 E2.25429
G1 X8.592 Y74.274 E.05402
G1 X9.193 Y73.46 E.03341
G1 X10.95 Y71.703 E.08204
G1 X12.301 Y70.89 E.05206
G1 E-3.5 F3600
;WIPE_START
G1 F7200
G1 X13.352 Y70.708 E-.50665
G1 X15.443 Y70.708 E-.99335
;WIPE_END
G1 X13.78 Y74.617 F9000
G1 E5 F2400
G1 F1200
G1 X14.25 Y74.524 E.01582
G1 X205.792 Y74.528 E6.3242
G1 X206.259 Y74.631 E.01579
G1 X206.731 Y74.849 E.01717
G1 X207.458 Y75.507 E.03238
G1 X207.787 Y76.022 E.02018
G1 X207.986 Y76.726 E.02415
G1 X207.986 Y143.238 E2.19605
G1 X207.855 Y143.813 E.01947
G1 X207.499 Y144.451 E.02412
G1 X206.917 Y145.021 E.0269
G1 X206.22 Y145.383 E.02593
G1 X205.75 Y145.476 E.01582
G1 X14.252 Y145.476 E6.32275
G1 X13.677 Y145.345 E.01947
G1 X13.039 Y144.989 E.02412
G1 X12.469 Y144.407 E.0269
G1 X12.107 Y143.71 E.02593
G1 X12.014 Y143.24 E.01582
G1 X12.014 Y76.762 E2.19492
G1 X12.145 Y76.187 E.01947
G1 X12.501 Y75.549 E.02412
G1 X13.083 Y74.979 E.0269
G1 X13.727 Y74.645 E.02395
G1 X13.889 Y75 F9000
G1 F1200
G1 X14.271 Y74.921 E.01288
G1 X205.769 Y74.925 E6.32275
G1 X206.148 Y75.012 E.01284
G1 X206.533 Y75.194 E.01406
G1 X207.17 Y75.781 E.0286
G1 X207.414 Y76.162 E.01494
G1 X207.589 Y76.755 E.02041
G1 X207.589 Y143.217 E2.1944
G1 X207.493 Y143.649 E.01461
G1 X207.196 Y144.192 E.02043
G1 X206.703 Y144.686 E.02304
G1 X206.111 Y145 E.02213
G1 X205.729 Y145.079 E.01288
G1 X14.273 Y145.079 E6.32136
G1 X13.841 Y144.983 E.01461
G1 X13.298 Y144.686 E.02043
G1 X12.804 Y144.193 E.02304
G1 X12.49 Y143.601 E.02213
G1 X12.411 Y143.219 E.01288
G1 X12.411 Y76.783 E2.19354
G1 X12.507 Y76.351 E.01461
G1 X12.804 Y75.808 E.02043
G1 X13.297 Y75.314 E.02304
G1 X13.836 Y75.028 E.02015
G1 X14.001 Y75.382 F9000
G1 F1200
G1 X14.294 Y75.318 E.0099
G1 X205.746 Y75.322 E6.32123
G1 X205.997 Y75.38 E.00851
G1 X206.334 Y75.539 E.0123
G1 X206.88 Y76.053 E.02476
G1 X207.044 Y76.307 E.00998
G1 X207.192 Y76.787 E.01658
G1 X207.192 Y143.196 E2.19265
G1 X207.128 Y143.489 E.0099
G1 X206.894 Y143.933 E.01657
G1 X206.443 Y144.384 E.02106
G1 X205.999 Y144.618 E.01657
G1 X205.706 Y144.682 E.0099
G1 X14.294 Y144.682 E6.31991
G1 X14.001 Y144.618 E.0099
G1 X13.557 Y144.384 E.01657
G1 X13.106 Y143.933 E.02106
G1 X12.872 Y143.489 E.01657
G1 X12.808 Y143.196 E.0099
G1 X12.808 Y76.804 E2.19208
G1 X12.872 Y76.511 E.0099
G1 X13.106 Y76.067 E.01657
G1 X13.557 Y75.616 E.02106
G1 X13.948 Y75.41 E.01459
G1 X14.126 Y75.763 F9000
G1 F1200
G1 X14.314 Y75.715 E.00641
G1 X205.723 Y75.719 E6.31981
G1 X205.846 Y75.748 E.00417
G1 X206.134 Y75.884 E.01052
G1 X206.588 Y76.323 E.02085
G1 X206.676 Y76.457 E.00529
G1 X206.795 Y76.82 E.01261
G1 X206.795 Y143.176 E2.1909
G1 X206.761 Y143.336 E.0054
G1 X206.589 Y143.676 E.01258
G1 X206.186 Y144.079 E.01882
G1 X205.846 Y144.251 E.01258
G1 X205.687 Y144.285 E.00537
G1 X14.314 Y144.285 E6.31862
G1 X14.154 Y144.251 E.0054
G1 X13.814 Y144.079 E.01258
G1 X13.411 Y143.676 E.01882
G1 X13.239 Y143.336 E.01258
G1 X13.205 Y143.177 E.00537
G1 X13.205 Y76.823 E2.19083
G1 X13.239 Y76.664 E.00537
G1 X13.411 Y76.324 E.01258
G1 X13.814 Y75.921 E.01882
G1 X14.073 Y75.79 E.00958
G1 X14.241 Y76.146 F9000
G1 F1200
G1 X14.332 Y76.112 E.00321
G1 X205.702 Y76.119 E6.31852
G1 X205.932 Y76.228 E.0084
G1 X206.293 Y76.589 E.01686
G1 X206.398 Y76.857 E.0095
G1 X206.391 Y143.192 E2.1902
G1 X206.282 Y143.422 E.0084
G1 X205.932 Y143.772 E.01634
G1 X205.668 Y143.888 E.00952
G1 X14.298 Y143.881 E6.31852
G1 X14.068 Y143.772 E.0084
G1 X13.718 Y143.422 E.01634
G1 X13.602 Y143.158 E.00952
G1 X13.602 Y76.842 E2.18958
G1 X13.718 Y76.578 E.00952
G1 X14.068 Y76.228 E.01634
G1 X14.187 Y76.172 E.00434
G1 X14.336 Y76.532 F9000
G1 F1200
G1 X14.391 Y76.509 E.00197
G1 X205.609 Y76.509 E6.3135
G1 X205.682 Y76.54 E.00262
G1 X205.97 Y76.828 E.01345
G1 X206.001 Y76.901 E.00262
G1 X206.001 Y143.099 E2.18568
G1 X205.97 Y143.172 E.00262
G1 X205.682 Y143.46 E.01345
G1 X205.609 Y143.491 E.00262
G1 X14.391 Y143.491 E6.3135
G1 X14.318 Y143.46 E.00262
G1 X14.03 Y143.172 E.01345
G1 X13.999 Y143.099 E.00262
G1 X13.999 Y76.901 E2.18568
G1 X14.03 Y76.828 E.00262
G1 X14.289 Y76.568 E.01212
G1 X14.513 Y76.906 F9000
G1 F1200
G1 X205.487 Y76.906 E6.30545
G1 X205.604 Y77.023 E.00546
G1 X205.604 Y142.977 E2.17762
G1 X205.487 Y143.094 E.00546
G1 X14.513 Y143.094 E6.30545
G1 X14.396 Y142.977 E.00546
G1 X14.396 Y77.023 E2.17762
G1 X14.47 Y76.949 E.00346
G1 X15.609 Y78.119 F9000
;TYPE:Perimeter
;WIDTH:0.439999
G1 F1200
G1 X18.02 Y78.119 E.0796
G1 X17.704 Y78.301 E.01204
G1 X17.213 Y78.709 E.02108
G1 X16.812 Y79.206 E.02108
G1 X16.517 Y79.772 E.02107
;WIDTH:0.483239
G1 X16.452 Y79.92 E.00592
;WIDTH:0.526479
G1 X16.387 Y80.068 E.0065
;WIDTH:0.569719
G1 X16.322 Y80.216 E.00708
;WIDTH:0.612958
G1 X16.257 Y80.364 E.00766
G1 X16.218 Y81.072 E.03361
;WIDTH:0.621434
G1 X16.275 Y81.67 E.0289
G1 X16.31 Y81.733 E.00347
;WIDTH:0.584608
G1 X16.345 Y81.796 E.00325
;WIDTH:0.547781
G1 X16.38 Y81.86 E.00306
;WIDTH:0.510954
G1 X16.515 Y82.15 E.01245
;WIDTH:0.475477
G1 X16.65 Y82.441 E.01154
;WIDTH:0.439999
G1 X17 Y82.975 E.02108
G1 X17.448 Y83.429 E.02106
G1 X17.956 Y83.775 E.02029
G1 X18.416 Y83.981 E.01664
G1 X19.036 Y84.134 E.02108
G1 X19.674 Y84.162 E.02109
G1 X20.305 Y84.064 E.02108
G1 X20.903 Y83.842 E.02106
G1 X21.446 Y83.505 E.0211
G1 X21.912 Y83.068 E.02109
G1 X22.281 Y82.548 E.02105
G1 X22.509 Y82.065 E.01763
G1 X22.649 Y81.536 E.01807
G1 X22.701 Y80.9 E.02107
G1 X22.653 Y80.398 E.01665
G1 X22.487 Y79.807 E.02027
G1 X22.199 Y79.237 E.02109
G1 X21.804 Y78.736 E.02106
G1 X21.317 Y78.322 E.0211
G1 X20.963 Y78.119 E.01347
G1 X199.03 Y78.119 E5.87928
G1 X198.554 Y78.417 E.01854
G1 X198.088 Y78.854 E.02109
G1 X197.719 Y79.374 E.02105
G1 X197.46 Y79.958 E.02109
G1 X197.321 Y80.581 E.02108
G1 X197.309 Y81.219 E.02107
G1 X197.415 Y81.824 E.02028
G1 X197.59 Y82.297 E.01665
G1 X197.913 Y82.848 E.02109
G1 X198.338 Y83.324 E.02107
G1 X198.849 Y83.707 E.02108
G1 X199.426 Y83.98 E.02108
G1 X200.046 Y84.134 E.02109
G1 X200.684 Y84.162 E.02109
G1 X201.314 Y84.064 E.02105
G1 X201.913 Y83.842 E.02109
G1 X202.456 Y83.505 E.0211
G1 X202.922 Y83.068 E.02109
G1 X203.291 Y82.548 E.02105
G1 X203.55 Y81.964 E.02109
;WIDTH:0.480517
G1 X203.602 Y81.842 E.00483
;WIDTH:0.521034
G1 X203.653 Y81.721 E.00522
;WIDTH:0.561552
G1 X203.704 Y81.599 E.0057
;WIDTH:0.602069
G1 X203.755 Y81.477 E.00615
G1 X203.784 Y80.948 E.02463
;WIDTH:0.604993
G1 X203.748 Y80.412 E.02511
G1 X203.716 Y80.349 E.0033
;WIDTH:0.567729
G1 X203.684 Y80.285 E.00312
;WIDTH:0.530465
G1 X203.652 Y80.221 E.0029
;WIDTH:0.4932
G1 X203.536 Y79.923 E.01197
;WIDTH:0.4666
G1 X203.42 Y79.625 E.01127
;WIDTH:0.439999
G1 X203.163 Y79.161 E.01751
G1 X202.814 Y78.736 E.01816
G1 X202.327 Y78.322 E.0211
G1 X201.973 Y78.119 E.01347
G1 X204.391 Y78.119 E.07984
G1 X204.391 Y78.789 E.02212
G1 X204.391 Y79.672 E.02915
;WIDTH:0.481248
G1 X204.37 Y79.85 E.00653
;WIDTH:0.522496
G1 X204.35 Y80.028 E.00714
;WIDTH:0.563745
G1 X204.329 Y80.206 E.00776
;WIDTH:0.604993
G1 X204.308 Y80.384 E.00838
G1 X204.321 Y80.948 E.02637
;WIDTH:0.602069
G1 X204.31 Y81.526 E.02688
G1 X204.33 Y81.662 E.00639
;WIDTH:0.561552
G1 X204.35 Y81.798 E.00593
;WIDTH:0.521034
G1 X204.371 Y81.934 E.00547
;WIDTH:0.480517
G1 X204.391 Y82.07 E.005
;WIDTH:0.439999
G1 X204.391 Y137.682 E1.83616
;WIDTH:0.481208
G1 X204.37 Y137.861 E.00657
;WIDTH:0.522416
G1 X204.35 Y138.04 E.00718
;WIDTH:0.563625
G1 X204.329 Y138.218 E.00776
;WIDTH:0.604833
G1 X204.308 Y138.397 E.00842
G1 X204.319 Y139.104 E.03304
;WIDTH:0.611712
G1 X204.305 Y139.646 E.02564
G1 X204.326 Y139.799 E.0073
;WIDTH:0.568784
G1 X204.348 Y139.953 E.0068
;WIDTH:0.525856
G1 X204.369 Y140.106 E.0062
;WIDTH:0.482928
G1 X204.391 Y140.26 E.00569
;WIDTH:0.439999
G1 X204.391 Y141.881 E.05352
G1 X201.852 Y141.881 E.08383
G1 X202.327 Y141.609 E.01807
G1 X202.814 Y141.196 E.02108
G1 X203.209 Y140.695 E.02106
G1 X203.497 Y140.125 E.02109
;WIDTH:0.481208
G1 X203.559 Y139.973 E.00598
;WIDTH:0.522416
G1 X203.622 Y139.821 E.00656
;WIDTH:0.563625
G1 X203.685 Y139.669 E.00712
;WIDTH:0.604833
G1 X203.748 Y139.517 E.00769
G1 X203.785 Y138.971 E.02557
G1 X203.748 Y138.425 E.02557
G1 X203.716 Y138.36 E.00339
;WIDTH:0.56718
G1 X203.684 Y138.296 E.00312
;WIDTH:0.529527
G1 X203.652 Y138.231 E.00293
;WIDTH:0.491873
G1 X203.536 Y137.933 E.01194
;WIDTH:0.465936
G1 X203.42 Y137.635 E.01125
;WIDTH:0.439999
G1 X203.097 Y137.084 E.02109
G1 X202.672 Y136.608 E.02107
G1 X202.161 Y136.225 E.02108
G1 X201.584 Y135.952 E.02108
G1 X200.964 Y135.798 E.02109
G1 X200.326 Y135.77 E.02109
G1 X199.695 Y135.868 E.02108
G1 X199.097 Y136.09 E.02106
G1 X198.554 Y136.427 E.0211
G1 X198.088 Y136.864 E.02109
G1 X197.719 Y137.384 E.02105
G1 X197.491 Y137.867 E.01763
G1 X197.351 Y138.396 E.01807
G1 X197.299 Y139.032 E.02107
G1 X197.375 Y139.666 E.02108
G1 X197.521 Y140.149 E.01666
G1 X197.801 Y140.695 E.02026
G1 X198.197 Y141.196 E.02108
G1 X198.683 Y141.61 E.02108
G1 X199.169 Y141.881 E.01837
G1 X20.838 Y141.881 E5.888
G1 X21.446 Y141.515 E.02343
G1 X21.912 Y141.078 E.02109
G1 X22.281 Y140.558 E.02105
G1 X22.54 Y139.974 E.02109
G1 X22.679 Y139.351 E.02108
G1 X22.691 Y138.713 E.02107
G1 X22.576 Y138.084 E.02111
G1 X22.315 Y137.451 E.02261
G1 X21.95 Y136.914 E.02144
G1 X21.515 Y136.482 E.02024
G1 X21.034 Y136.165 E.01902
G1 X20.494 Y135.929 E.01946
G1 X19.954 Y135.798 E.01835
G1 X19.406 Y135.762 E.01813
G1 X18.865 Y135.826 E.01799
G1 X18.267 Y136.009 E.02065
G1 X17.704 Y136.311 E.02109
G1 X17.213 Y136.719 E.02108
G1 X16.812 Y137.216 E.02108
G1 X16.517 Y137.782 E.02107
;WIDTH:0.483239
G1 X16.452 Y137.93 E.00592
;WIDTH:0.526478
G1 X16.387 Y138.078 E.0065
;WIDTH:0.569718
G1 X16.322 Y138.226 E.00708
;WIDTH:0.612957
G1 X16.257 Y138.374 E.00766
G1 X16.218 Y139.082 E.03361
;WIDTH:0.624109
G1 X16.278 Y139.706 E.03029
G1 X16.35 Y139.847 E.00765
;WIDTH:0.578082
G1 X16.421 Y139.989 E.00706
;WIDTH:0.532054
G1 X16.493 Y140.131 E.00648
;WIDTH:0.486027
G1 X16.565 Y140.272 E.00583
;WIDTH:0.439999
G1 X16.883 Y140.831 E.02123
G1 X17.3 Y141.309 E.02094
G1 X17.807 Y141.697 E.02108
G1 X18.154 Y141.881 E.01297
G1 X15.609 Y141.881 E.08403
G1 X15.609 Y140.441 E.04754
;WIDTH:0.485358
G1 X15.632 Y140.261 E.00668
;WIDTH:0.530716
G1 X15.655 Y140.082 E.00732
;WIDTH:0.576074
G1 X15.677 Y139.902 E.00804
;WIDTH:0.621432
G1 X15.7 Y139.723 E.00868
G1 X15.68 Y139.015 E.03407
;WIDTH:0.612957
G1 X15.696 Y138.304 E.03371
G1 X15.674 Y138.194 E.00532
;WIDTH:0.569718
G1 X15.652 Y138.083 E.00496
;WIDTH:0.526478
G1 X15.631 Y137.973 E.0045
;WIDTH:0.483239
G1 X15.609 Y137.862 E.00414
;WIDTH:0.439999
G1 X15.609 Y82.431 E1.83018
;WIDTH:0.485358
G1 X15.632 Y82.251 E.00668
;WIDTH:0.530717
G1 X15.655 Y82.072 E.00732
;WIDTH:0.576076
G1 X15.677 Y81.892 E.00804
;WIDTH:0.621434
G1 X15.7 Y81.713 E.00868
G1 X15.68 Y81.005 E.03407
;WIDTH:0.612958
G1 X15.696 Y80.294 E.03371
G1 X15.674 Y80.184 E.00532
;WIDTH:0.569719
G1 X15.652 Y80.073 E.00496
;WIDTH:0.526479
G1 X15.631 Y79.963 E.0045
;WIDTH:0.483239
G1 X15.609 Y79.852 E.00414
;WIDTH:0.439999
G1 X15.609 Y78.179 E.05524
G1 X15.212 Y77.722 F9000
G1 F1200
G1 X18.287 Y77.722 E.10153
;WIDTH:0.485613
G1 X18.897 Y77.745 E.02247
G1 X19.44 Y77.73 E.02
;WIDTH:0.472558
G1 X20.549 Y77.722 E.03962
;WIDTH:0.439999
G1 X199.297 Y77.722 E5.90177
;WIDTH:0.485614
G1 X199.907 Y77.745 E.02247
G1 X200.45 Y77.73 E.02
;WIDTH:0.472557
G1 X201.559 Y77.722 E.03962
;WIDTH:0.439999
G1 X204.788 Y77.722 E.10661
G1 X204.788 Y78.789 E.03523
G1 X204.788 Y142.278 E2.09623
G1 X201.724 Y142.278 E.10116
;WIDTH:0.479872
G1 X201.416 Y142.258 E.01121
;WIDTH:0.519745
G1 X201.107 Y142.238 E.01228
G1 X200.56 Y142.253 E.0217
;WIDTH:0.506605
G1 X200.056 Y142.245 E.01943
G1 X199.748 Y142.261 E.01189
;WIDTH:0.473302
G1 X199.441 Y142.278 E.011
;WIDTH:0.439999
G1 X20.715 Y142.278 E5.90104
;WIDTH:0.479871
G1 X20.406 Y142.258 E.01125
;WIDTH:0.519743
G1 X20.097 Y142.238 E.01228
G1 X19.55 Y142.253 E.0217
;WIDTH:0.506607
G1 X19.046 Y142.245 E.01943
G1 X18.739 Y142.261 E.01185
;WIDTH:0.473303
G1 X18.432 Y142.278 E.011
;WIDTH:0.439999
G1 X15.212 Y142.278 E.10632
G1 X15.212 Y77.782 E2.12948
G1 X14.815 Y77.325 F9000
;TYPE:External perimeter
G1 F1200
G1 X205.185 Y77.325 E6.28549
G1 X205.185 Y142.675 E2.15768
G1 X14.815 Y142.675 E6.28549
G1 X14.815 Y77.385 E2.1557
G1 X15.213 Y77.369 F9000
G1 E-3.5 F3600
;WIPE_START
G1 F7200
G1 X17.973 Y77.384 E-1.5
;WIPE_END
G1 X203.28 Y81.38 F9000
G1 E5 F2400
;TYPE:Perimeter
G1 F1200
G1 X203.125 Y81.978 E.0204
G1 X202.872 Y82.477 E.01847
G1 X202.524 Y82.916 E.0185
G1 X202.097 Y83.277 E.01846
G1 X201.607 Y83.547 E.01847
G1 X201.072 Y83.714 E.0185
G1 X200.516 Y83.771 E.01845
G1 X199.959 Y83.718 E.01847
G1 X199.473 Y83.578 E.0167
G1 X198.993 Y83.333 E.01779
G1 X198.586 Y83.014 E.01707
G1 X198.217 Y82.593 E.01848
G1 X197.939 Y82.107 E.01849
G1 X197.767 Y81.597 E.01777
G1 X197.696 Y81.042 E.01847
G1 X197.735 Y80.484 E.01847
G1 X197.885 Y79.944 E.0185
G1 X198.138 Y79.445 E.01847
G1 X198.486 Y79.006 E.0185
G1 X198.913 Y78.645 E.01846
G1 X199.403 Y78.376 E.01846
;WIDTH:0.488693
G1 X199.905 Y78.189 E.01986
G1 X200.45 Y78.142 E.02028
;WIDTH:0.458987
G1 X201.054 Y78.195 E.02098
G1 X201.587 Y78.367 E.01938
;WIDTH:0.439999
G1 X202.079 Y78.633 E.01847
G1 X202.509 Y78.991 E.01847
G1 X202.832 Y79.382 E.01674
G1 X203.117 Y79.924 E.02022
G1 X203.271 Y80.461 E.01844
G1 X203.316 Y80.99 E.01753
G1 X203.285 Y81.321 E.01098
G1 X202.89 Y81.341 F9000
;TYPE:External perimeter
G1 F1200
G1 X202.767 Y81.805 E.01585
G1 X202.555 Y82.237 E.01589
G1 X202.262 Y82.618 E.01587
G1 X201.898 Y82.933 E.01589
G1 X201.48 Y83.17 E.01587
G1 X201.023 Y83.32 E.01588
G1 X200.545 Y83.375 E.01589
G1 X200.066 Y83.336 E.01587
G1 X199.604 Y83.202 E.01588
G1 X199.178 Y82.979 E.01588
G1 X198.805 Y82.676 E.01587
G1 X198.499 Y82.305 E.01588
G1 X198.274 Y81.886 E.0157
G1 X198.16 Y81.537 E.01212
G1 X198.092 Y81.062 E.01584
G1 X198.12 Y80.582 E.01588
G1 X198.243 Y80.117 E.01588
G1 X198.455 Y79.685 E.01589
G1 X198.748 Y79.304 E.01587
G1 X199.111 Y78.989 E.01587
G1 X199.53 Y78.752 E.01589
G1 X199.987 Y78.602 E.01588
G1 X200.465 Y78.547 E.01589
G1 X200.944 Y78.586 E.01587
G1 X201.406 Y78.72 E.01588
G1 X201.832 Y78.943 E.01588
G1 X202.205 Y79.246 E.01587
G1 X202.511 Y79.617 E.01588
G1 X202.738 Y80.041 E.01588
G1 X202.876 Y80.501 E.01586
G1 X202.92 Y80.962 E.01529
G1 X202.894 Y81.281 E.01057
G1 X203.198 Y81.595 F9000
G1 E-3.5 F3600
;WIPE_START
G1 F7200
G1 X202.767 Y81.805 E-.25611
G1 X202.555 Y82.237 E-.22858
G1 X202.262 Y82.618 E-.2283
G1 X201.898 Y82.933 E-.22865
G1 X201.48 Y83.17 E-.22824
G1 X201.023 Y83.32 E-.22847
