; generated by PrusaSlicer 2.6.0+win64 on 2023-09-14 at 19:40:06 UTC

; 

; external perimeters extrusion width = 0.42mm
; perimeters extrusion width = 0.44mm
; infill extrusion width = 0.44mm
; solid infill extrusion width = 0.44mm
; top infill extrusion width = 0.44mm
; first layer extrusion width = 0.44mm

;TYPE:Custom
G90 ; use absolute coordinates
M83 ; extruder relative mode
M140 S60 ; set final bed temp
M104 S150 ; set temporary nozzle temp to prevent oozing during homing
G4 S10 ; allow partial nozzle warmup
G28 ; home all axis
G1 Z50 F240
G1 X2 Y10 F3000
M104 S210 ; set final nozzle temp
M190 S60 ; wait for bed temp to stabilize
M109 S210 ; wait for nozzle temp to stabilize
G1 Z0.28 F240
G92 E0
G1 Y140 E10 F1500 ; prime the nozzle
G1 X2.3 F5000
G92 E0
G1 Y10 E10 F1200 ; prime the nozzle
G92 E0
G21 ; set units to millimeters
G90 ; use absolute coordinates
M83 ; use relative distances for extrusion
; Filament gcode
M107
;LAYER_CHANGE
;Z:0.2
;HEIGHT:0.2
;BEFORE_LAYER_CHANGE
G92 E0
;0.2


G1 E-5 F3600
G1 Z.2 F9000
;AFTER_LAYER_CHANGE
;0.2
G1 X12.352 Y70.859
G1 E5 F2400
M204 S500
;TYPE:Skirt/Brim
;WIDTH:0.44
G1 F1200
G1 X13.352 Y70.708 E.03339
G1 X206.648 Y70.708 E6.38211
G1 X208.236 Y71.102 E.05402
G1 X209.05 Y71.703 E.03341
G1 X210.807 Y73.46 E.08204
G1 X211.651 Y74.862 E.05403
G1 X211.802 Y75.862 E.03339
G1 X211.802 Y144.138 E2.25429
G1 X211.408 Y145.726 E.05402
G1 X210.807 Y146.54 E.03341
G1 X209.05 Y148.297 E.08204
G1 X207.648 Y149.141 E.05403
G1 X206.648 Y149.292 E.03339
G1 X13.352 Y149.292 E6.38211
G1 X11.764 Y148.898 E.05402
G1 X10.95 Y148.297 E.03341
G1 X9.193 Y146.54 E.08204
G1 X8.349 Y145.138 E.05403
G1 X8.198 Y144.138 E.03339
G1 X8.198 Y75.862 E2.25429
G1 X8.592 Y74.274 E.05402
G1 X9.193 Y73.46 E.03341
G1 X10.95 Y71.703 E.08204
G1 X12.301 Y70.89 E.05206
G1 E-3.5 F3600
;WIPE_START
G1 F7200
G1 X13.352 Y70.708 E-.50665
G1 X15.443 Y70.708 E-.99335
;WIPE_END
G1 X13.78 Y74.617 F9000
G1 E5 F2400
G1 F1200
G1 X14.25 Y74.524 E.01582
G1 X205.792 Y74.528 E6.3242
G1 X206.259 Y74.631 E.01579
G1 X206.731 Y74.849 E.01717
G1 X207.458 Y75.507 E.03238
G1 X207.787 Y76.022 E.02018
G1 X207.986 Y76.726 E.02415
G1 X207.986 Y143.238 E2.19605
G1 X207.855 Y143.813 E.01947
G1 X207.499 Y144.451 E.02412
G1 X206.917 Y145.021 E.0269
G1 X206.22 Y145.383 E.02593
G1 X205.75 Y145.476 E.01582
G1 X14.252 Y145.476 E6.32275
G1 X13.677 Y145.345 E.01947
G1 X13.039 Y144.989 E.02412
G1 X12.469 Y144.407 E.0269
G1 X12.107 Y143.71 E.02593
G1 X12.014 Y143.24 E.01582
G1 X12.014 Y76.762 E2.19492
G1 X12.145 Y76.187 E.01947
G1 X12.501 Y75.549 E.02412
G1 X13.083 Y74.979 E.0269
G1 X13.727 Y74.645 E.02395
G1 X13.889 Y75 F9000
G1 F1200
G1 X14.271 Y74.921 E.01288
G1 X205.769 Y74.925 E6.32275
G1 X206.148 Y75.012 E.01284
G1 X206.533 Y75.194 E.01406
G1 X207.17 Y75.781 E.0286
G1 X207.414 Y76.162 E.01494
G1 X207.589 Y76.755 E.02041
G1 X207.589 Y143.217 E2.1944
G1 X207.493 Y143.649 E.01461
G1 X207.196 Y144.192 E.02043
G1 X206.703 Y144.686 E.02304
G1 X206.111 Y145 E.02213
G1 X205.729 Y145.079 E.01288
G1 X14.273 Y145.079 E6.32136
G1 X13.841 Y144.983 E.01461
G1 X13.298 Y144.686 E.02043
G1 X12.804 Y144.193 E.02304
G1 X12.49 Y143.601 E.02213
G1 X12.411 Y143.219 E.01288
G1 X12.411 Y76.783 E2.19354
G1 X12.507 Y76.351 E.01461
G1 X12.804 Y75.808 E.02043
G1 X13.297 Y75.314 E.02304
G1 X13.836 Y75.028 E.02015
G1 X14.001 Y75.382 F9000
G1 F1200
G1 X14.294 Y75.318 E.0099
G1 X205.746 Y75.322 E6.32123
G1 X205.997 Y75.38 E.00851
G1 X206.334 Y75.539 E.0123
G1 X206.88 Y76.053 E.02476
G1 X207.044 Y76.307 E.00998
G1 X207.192 Y76.787 E.01658
G1 X207.192 Y143.196 E2.19265
G1 X207.128 Y143.489 E.0099
G1 X206.894 Y143.933 E.01657
G1 X206.443 Y144.384 E.02106
G1 X205.999 Y144.618 E.01657
G1 X205.706 Y144.682 E.0099
G1 X14.294 Y144.682 E6.31991
G1 X14.001 Y144.618 E.0099
G1 X13.557 Y144.384 E.01657
G1 X13.106 Y143.933 E.02106
G1 X12.872 Y143.489 E.01657
G1 X12.808 Y143.196 E.0099
G1 X12.808 Y76.804 E2.19208
G1 X12.872 Y76.511 E.0099
G1 X13.106 Y76.067 E.01657
G1 X13.557 Y75.616 E.02106
G1 X13.948 Y75.41 E.01459
G1 X14.126 Y75.763 F9000
G1 F1200
G1 X14.314 Y75.715 E.00641
G1 X205.723 Y75.719 E6.31981
G1 X205.846 Y75.748 E.00417
G1 X206.134 Y75.884 E.01052
G1 X206.588 Y76.323 E.02085
G1 X206.676 Y76.457 E.00529
G1 X206.795 Y76.82 E.01261
G1 X206.795 Y143.176 E2.1909
G1 X206.761 Y143.336 E.0054
G1 X206.589 Y143.676 E.01258
G1 X206.186 Y144.079 E.01882
G1 X205.846 Y144.251 E.01258
G1 X205.687 Y144.285 E.00537
G1 X14.314 Y144.285 E6.31862
G1 X14.154 Y144.251 E.0054
G1 X13.814 Y144.079 E.01258
G1 X13.411 Y143.676 E.01882
G1 X13.239 Y143.336 E.01258
G1 X13.205 Y143.177 E.00537
G1 X13.205 Y76.823 E2.19083
G1 X13.239 Y76.664 E.00537
G1 X13.411 Y76.324 E.01258
G1 X13.814 Y75.921 E.01882
G1 X14.073 Y75.79 E.00958
G1 X14.241 Y76.146 F9000
G1 F1200
G1 X14.332 Y76.112 E.00321
G1 X205.702 Y76.119 E6.31852
G1 X205.932 Y76.228 E.0084
G1 X206.293 Y76.589 E.01686
G1 X206.398 Y76.857 E.0095
G1 X206.391 Y143.192 E2.1902
G1 X206.282 Y143.422 E.0084
G1 X205.932 Y143.772 E.01634
G1 X205.668 Y143.888 E.00952
G1 X14.298 Y143.881 E6.31852
G1 X14.068 Y143.772 E.0084
G1 X13.718 Y143.422 E.01634
G1 X13.602 Y143.158 E.00952
G1 X13.602 Y76.842 E2.18958
G1 X13.718 Y76.578 E.00952
G1 X14.068 Y76.228 E.01634
G1 X14.187 Y76.172 E.00434
G1 X14.336 Y76.532 F9000
G1 F1200
G1 X14.391 Y76.509 E.00197
G1 X205.609 Y76.509 E6.3135
G1 X205.682 Y76.54 E.00262
G1 X205.97 Y76.828 E.01345
G1 X206.001 Y76.901 E.00262
G1 X206.001 Y143.099 E2.18568
G1 X205.97 Y143.172 E.00262
G1 X205.682 Y143.46 E.01345
G1 X205.609 Y143.491 E.00262
G1 X14.391 Y143.491 E6.3135
G1 X14.318 Y143.46 E.00262
G1 X14.03 Y143.172 E.01345
G1 X13.999 Y143.099 E.00262
G1 X13.999 Y76.901 E2.18568
G1 X14.03 Y76.828 E.00262
G1 X14.289 Y76.568 E.01212
G1 X14.513 Y76.906 F9000
G1 F1200
G1 X205.487 Y76.906 E6.30545
G1 X205.604 Y77.023 E.00546
G1 X205.604 Y142.977 E2.17762
G1 X205.487 Y143.094 E.00546
G1 X14.513 Y143.094 E6.30545
G1 X14.396 Y142.977 E.00546
G1 X14.396 Y77.023 E2.17762
G1 X14.47 Y76.949 E.00346
G1 X15.609 Y78.119 F9000
;TYPE:Perimeter
;WIDTH:0.439999
G1 F1200
G1 X204.391 Y78.119 E6.23306
G1 X204.391 Y141.881 E2.10525
G1 X15.609 Y141.881 E6.23306
G1 X15.609 Y78.179 E2.10326
G1 X15.212 Y77.722 F9000
G1 F1200
G1 X204.788 Y77.722 E6.25928
G1 X204.788 Y142.278 E2.13146
G1 X15.212 Y142.278 E6.25928
G1 X15.212 Y77.782 E2.12948
G1 X14.815 Y77.325 F9000
;TYPE:External perimeter
G1 F1200
G1 X205.185 Y77.325 E6.28549
G1 X205.185 Y142.675 E2.15768
G1 X14.815 Y142.675 E6.28549
G1 X14.815 Y77.385 E2.1557
G1 X15.213 Y77.369 F9000
G1 E-3.5 F3600
;WIPE_START
G1 F7200
G1 X17.973 Y77.384 E-1.5
;WIPE_END
G1 X197.859 Y115.064 F9000
G1 E5 F2400
;TYPE:Perimeter
G1 F1200
G1 X198.052 Y114.788 E.01112
G1 X198.492 Y114.38 E.01981
G1 X198.99 Y114.106 E.01877
G1 X199.472 Y113.962 E.01661
G1 X199.977 Y113.919 E.01673
G1 X200.469 Y113.976 E.01635
G1 X200.94 Y114.128 E.01634
G1 X201.371 Y114.372 E.01635
G1 X201.745 Y114.696 E.01634
G1 X202.048 Y115.087 E.01633
G1 X202.268 Y115.531 E.01636
G1 X202.399 Y116.083 E.01873
G1 X202.412 Y116.603 E.01717
G1 X202.308 Y117.162 E.01877
G1 X202.111 Y117.616 E.01634
G1 X201.828 Y118.022 E.01634
G1 X201.471 Y118.364 E.01632
G1 X201.052 Y118.629 E.01637
G1 X200.589 Y118.805 E.01635
G1 X200.101 Y118.886 E.01633
G1 X199.502 Y118.855 E.0198
G1 X198.94 Y118.682 E.01941
G1 X198.509 Y118.438 E.01635
G1 X198.135 Y118.114 E.01634
G1 X197.832 Y117.723 E.01633
G1 X197.598 Y117.233 E.01793
G1 X197.486 Y116.803 E.01467
G1 X197.465 Y116.246 E.0184
G1 X197.557 Y115.718 E.0177
G1 X197.769 Y115.194 E.01866
G1 X197.825 Y115.113 E.00325
G1 X198.185 Y115.276 F9000
G1 F1200
G1 X198.368 Y115.027 E.0102
G1 X198.746 Y114.688 E.01676
G1 X199.135 Y114.476 E.01463
G1 X199.533 Y114.355 E.01373
G1 X199.947 Y114.315 E.01373
G1 X200.361 Y114.358 E.01374
G1 X200.758 Y114.482 E.01373
G1 X201.123 Y114.682 E.01374
G1 X201.441 Y114.951 E.01375
G1 X201.7 Y115.277 E.01375
G1 X201.888 Y115.648 E.01373
G1 X202.002 Y116.093 E.01517
G1 X202.015 Y116.613 E.01717
G1 X201.924 Y117.064 E.01519
G1 X201.692 Y117.545 E.01763
G1 X201.431 Y117.87 E.01376
G1 X201.111 Y118.136 E.01374
G1 X200.745 Y118.334 E.01374
G1 X200.347 Y118.455 E.01373
G1 X199.933 Y118.495 E.01373
G1 X199.519 Y118.452 E.01374
G1 X199.121 Y118.328 E.01376
G1 X198.757 Y118.128 E.01371
G1 X198.439 Y117.859 E.01375
G1 X198.18 Y117.533 E.01375
G1 X197.977 Y117.116 E.01531
G1 X197.881 Y116.762 E.01211
G1 X197.859 Y116.301 E.01524
G1 X197.947 Y115.788 E.01719
G1 X198.149 Y115.324 E.01671
G1 X198.505 Y115.505 F9000
;TYPE:External perimeter
G1 F1200
G1 X198.685 Y115.267 E.00985
G1 X198.967 Y115.018 E.01242
G1 X199.261 Y114.853 E.01113
G1 X199.582 Y114.749 E.01114
G1 X199.918 Y114.711 E.01116
G1 X200.254 Y114.74 E.01114
G1 X200.577 Y114.835 E.01112
G1 X200.876 Y114.993 E.01117
G1 X201.137 Y115.206 E.01112
G1 X201.351 Y115.467 E.01114
G1 X201.509 Y115.765 E.01114
G1 X201.605 Y116.103 E.0116
G1 X201.618 Y116.623 E.01717
G1 X201.525 Y117.003 E.01292
G1 X201.375 Y117.305 E.01113
G1 X201.168 Y117.572 E.01115
G1 X200.913 Y117.792 E.01112
G1 X200.619 Y117.957 E.01113
G1 X200.298 Y118.061 E.01114
G1 X199.962 Y118.099 E.01116
G1 X199.626 Y118.07 E.01114
G1 X199.303 Y117.975 E.01112
G1 X199.004 Y117.817 E.01117
G1 X198.743 Y117.604 E.01112
G1 X198.529 Y117.343 E.01114
G1 X198.357 Y116.999 E.0127
G1 X198.276 Y116.722 E.00953
G1 X198.25 Y116.368 E.01172
G1 X198.338 Y115.858 E.01709
G1 X198.479 Y115.559 E.01091
G1 X198.357 Y115.246 F9000
G1 E-3.5 F3600
;WIPE_START
G1 F7200
G1 X198.685 Y115.267 E-.16974
G1 X198.967 Y115.018 E-.17869
G1 X199.261 Y114.853 E-.16014
G1 X199.582 Y114.749 E-.16028
G1 X199.918 Y114.711 E-.16062
G1 X200.254 Y114.74 E-.16019
G1 X200.577 Y114.835 E-.15992
G1 X200.876 Y114.993 E-.16063
G1 X201.137 Y115.206 E-.16002
G1 X201.177 Y115.254 E-.02977
;WIPE_END
G1 X194.475 Y114.296 F9000
G1 E5 F2400
;TYPE:Perimeter
G1 F1200
G1 X194.356 Y114.829 E.01803
G1 X194.236 Y115.212 E.01325
G1 X193.952 Y115.801 E.02159
G1 X193.597 Y116.302 E.02027
G1 X193.271 Y116.682 E.01653
G1 X192.812 Y117.086 E.02019
G1 X192.075 Y117.535 E.02849
G1 X191.263 Y117.829 E.02851
G1 X190.409 Y117.955 E.0285
G1 X189.547 Y117.911 E.0285
G1 X188.711 Y117.696 E.0285
G1 X187.933 Y117.32 E.02853
G1 X187.246 Y116.797 E.02851
G1 X186.866 Y116.374 E.01877
G1 X186.564 Y115.982 E.01634
G1 X186.246 Y115.4 E.0219
G1 X186.015 Y114.717 E.02381
G1 X185.919 Y114.237 E.01616
G1 X185.864 Y113.672 E.01874
G1 X185.901 Y113.074 E.01978
G1 X186.013 Y112.559 E.0174
G1 X186.15 Y112.077 E.01654
G1 X186.452 Y111.449 E.02301
G1 X186.958 Y110.749 E.02852
G1 X187.592 Y110.164 E.02848
G1 X188.06 Y109.87 E.01825
G1 X188.509 Y109.634 E.01675
G1 X189.141 Y109.421 E.02202
G1 X189.995 Y109.295 E.0285
G1 X190.857 Y109.339 E.0285
G1 X191.693 Y109.554 E.0285
G1 X192.453 Y109.92 E.02785
G1 X193.013 Y110.322 E.02276
G1 X193.597 Y110.929 E.02781
G1 X194.064 Y111.655 E.0285
G1 X194.378 Y112.46 E.02853
G1 X194.482 Y113.016 E.01868
G1 X194.536 Y113.508 E.01634
G1 X194.488 Y114.238 E.02415
G1 X194.131 Y113.437 F9000
G1 F1200
G1 X194.106 Y114.153 E.02365
G1 X193.971 Y114.731 E.0196
G1 X193.878 Y115.04 E.01065
G1 X193.594 Y115.628 E.02156
G1 X193.281 Y116.062 E.01767
G1 X193.008 Y116.384 E.01394
G1 X192.55 Y116.789 E.02019
G1 X191.876 Y117.191 E.02591
G1 X191.136 Y117.452 E.02591
G1 X190.359 Y117.561 E.02591
G1 X189.576 Y117.515 E.0259
G1 X188.818 Y117.314 E.02589
G1 X188.115 Y116.966 E.0259
G1 X187.494 Y116.486 E.02591
G1 X186.981 Y115.893 E.02589
G1 X186.595 Y115.21 E.0259
G1 X186.395 Y114.6 E.0212
G1 X186.314 Y114.197 E.01357
G1 X186.261 Y113.66 E.01782
G1 X186.297 Y113.103 E.01843
G1 X186.48 Y112.333 E.02613
G1 X186.81 Y111.622 E.02588
G1 X187.274 Y110.989 E.02591
G1 X187.854 Y110.461 E.0259
G1 X188.528 Y110.059 E.02591
G1 X189.268 Y109.798 E.02591
G1 X190.045 Y109.689 E.02591
G1 X190.828 Y109.735 E.0259
G1 X191.586 Y109.936 E.02589
G1 X192.273 Y110.274 E.02528
G1 X192.774 Y110.64 E.02049
G1 X193.306 Y111.199 E.02548
G1 X193.725 Y111.862 E.0259
G1 X194.005 Y112.596 E.02594
G1 X194.133 Y113.377 E.02613
G1 X193.632 Y112.731 F9000
;TYPE:External perimeter
G1 F1200
G1 X193.741 Y113.429 E.02333
G1 X193.709 Y114.134 E.0233
G1 X193.52 Y114.867 E.02499
G1 X193.236 Y115.456 E.02159
G1 X192.813 Y116.021 E.0233
G1 X192.287 Y116.491 E.02329
G1 X191.678 Y116.847 E.02329
G1 X191.01 Y117.076 E.02332
G1 X190.31 Y117.167 E.02331
G1 X189.606 Y117.119 E.0233
G1 X188.926 Y116.931 E.02329
G1 X188.296 Y116.613 E.0233
G1 X187.742 Y116.176 E.0233
G1 X187.285 Y115.638 E.02331
G1 X186.944 Y115.02 E.0233
G1 X186.774 Y114.483 E.0186
G1 X186.675 Y113.827 E.0219
G1 X186.693 Y113.131 E.02299
G1 X186.865 Y112.431 E.0238
G1 X187.168 Y111.794 E.02329
G1 X187.591 Y111.229 E.0233
G1 X188.117 Y110.759 E.02329
G1 X188.726 Y110.403 E.02329
G1 X189.394 Y110.174 E.02332
G1 X190.094 Y110.083 E.02331
G1 X190.798 Y110.131 E.0233
G1 X191.478 Y110.319 E.02329
G1 X192.092 Y110.627 E.02268
G1 X192.535 Y110.957 E.01824
G1 X193.015 Y111.469 E.02317
G1 X193.387 Y112.069 E.02331
G1 X193.611 Y112.675 E.02133
G1 X194.017 Y112.838 F9000
G1 E-3.5 F3600
;WIPE_START
G1 F7200
G1 X193.741 Y113.429 E-.36343
G1 X193.709 Y114.134 E-.33522
G1 X193.52 Y114.867 E-.35956
G1 X193.236 Y115.456 E-.3106
G1 X193.07 Y115.677 E-.13119
;WIPE_END
G1 X185.305 Y115.425 F9000
G1 E5 F2400
;TYPE:Perimeter
G1 F1200
G1 X185.358 Y115.531 E.00391
G1 X185.485 Y116.01 E.01636
G1 X185.514 Y116.507 E.01644
G1 X185.445 Y116.994 E.01624
G1 X185.243 Y117.525 E.01876
G1 X184.961 Y117.961 E.01714
G1 X184.56 Y118.364 E.01877
G1 X184.111 Y118.646 E.01751
G1 X183.616 Y118.824 E.01737
G1 X183.067 Y118.894 E.01827
G1 X182.565 Y118.85 E.01664
G1 X182.07 Y118.701 E.01707
G1 X181.709 Y118.515 E.01341
G1 X181.314 Y118.207 E.01654
G1 X180.987 Y117.828 E.01653
G1 X180.702 Y117.279 E.02042
G1 X180.573 Y116.772 E.01727
G1 X180.559 Y116.241 E.01754
G1 X180.588 Y115.937 E.01008
G1 X180.729 Y115.462 E.01636
G1 X180.962 Y115.025 E.01635
G1 X181.276 Y114.643 E.01633
G1 X181.66 Y114.33 E.01636
G1 X182.098 Y114.1 E.01633
G1 X182.574 Y113.961 E.01637
G1 X183.067 Y113.919 E.01634
G1 X183.559 Y113.976 E.01635
G1 X184.03 Y114.128 E.01634
G1 X184.461 Y114.372 E.01635
G1 X184.835 Y114.696 E.01634
G1 X185.138 Y115.087 E.01633
G1 X185.279 Y115.371 E.01047
G1 X184.95 Y115.592 F9000
G1 F1200
G1 X185.09 Y116.049 E.01578
G1 X185.119 Y116.467 E.01383
G1 X185.066 Y116.877 E.01365
G1 X184.91 Y117.309 E.01516
G1 X184.627 Y117.746 E.01719
G1 X184.249 Y118.106 E.01724
G1 X183.835 Y118.334 E.0156
G1 X183.437 Y118.455 E.01373
G1 X183.023 Y118.495 E.01373
G1 X182.565 Y118.44 E.01523
G1 X182.211 Y118.328 E.01226
G1 X181.913 Y118.174 E.01108
G1 X181.529 Y117.859 E.0164
G1 X181.27 Y117.533 E.01375
G1 X181.082 Y117.162 E.01373
G1 X180.967 Y116.7 E.01572
G1 X180.955 Y116.197 E.01661
G1 X181.077 Y115.658 E.01825
G1 X181.278 Y115.265 E.01457
G1 X181.539 Y114.94 E.01376
G1 X181.859 Y114.674 E.01374
G1 X182.225 Y114.476 E.01374
G1 X182.623 Y114.355 E.01373
G1 X183.037 Y114.315 E.01373
G1 X183.451 Y114.358 E.01374
G1 X183.849 Y114.482 E.01376
G1 X184.318 Y114.766 E.0181
G1 X184.629 Y115.067 E.01429
G1 X184.79 Y115.277 E.00874
G1 X184.923 Y115.539 E.0097
G1 X184.599 Y115.765 F9000
;TYPE:External perimeter
G1 F1200
G1 X184.694 Y116.089 E.01115
G1 X184.724 Y116.428 E.01124
G1 X184.687 Y116.76 E.01103
G1 X184.576 Y117.094 E.01162
G1 X184.294 Y117.531 E.01717
G1 X183.965 Y117.814 E.01433
G1 X183.709 Y117.957 E.00968
G1 X183.388 Y118.061 E.01114
G1 X183.052 Y118.099 E.01116
G1 X182.672 Y118.058 E.01262
G1 X182.393 Y117.975 E.00961
G1 X182.116 Y117.833 E.01028
G1 X181.833 Y117.604 E.01202
G1 X181.619 Y117.343 E.01114
G1 X181.461 Y117.045 E.01114
G1 X181.364 Y116.69 E.01215
G1 X181.352 Y116.187 E.01661
G1 X181.445 Y115.807 E.01292
G1 X181.595 Y115.505 E.01113
G1 X181.802 Y115.238 E.01115
G1 X182.057 Y115.018 E.01112
G1 X182.351 Y114.853 E.01113
G1 X182.672 Y114.749 E.01114
G1 X183.008 Y114.711 E.01116
G1 X183.344 Y114.74 E.01114
G1 X183.667 Y114.835 E.01112
G1 X184.071 Y115.076 E.01553
G1 X184.431 Y115.451 E.01716
G1 X184.571 Y115.712 E.00978
G1 X184.934 Y115.803 F9000
G1 E-3.5 F3600
;WIPE_START
G1 F7200
G1 X184.694 Y116.089 E-.18836
