; generated by PrusaSlicer 2.6.1+win64 on 2023-09-29 at 19:56:09 UTC


;
;

;
;

;
;
; 

; external perimeters extrusion width = 0.45mm
; perimeters extrusion width = 0.45mm
; infill extrusion width = 0.45mm
; solid infill extrusion width = 0.45mm
; top infill extrusion width = 0.40mm
; first layer extrusion width = 0.50mm

M73 P0 R71
M201 X2500 Y2500 Z200 E2500 ; sets maximum accelerations, mm/sec^2
M203 X200 Y200 Z40 E100 ; sets maximum feedrates, mm / sec
M204 P2000 R1200 T2000 ; sets acceleration (P, T) and retract acceleration (R), mm/sec^2
M205 X8.00 Y8.00 Z2.00 E10.00 ; sets the jerk limits, mm/sec
M205 S0 T0 ; sets the minimum extruding and travel feed rate, mm/sec
;TYPE:Custom
M17 ; enable steppers
M862.3 P "MK4" ; printer model check
M862.1 P0.4 ; nozzle diameter check
M555 X27.595 Y66.105 W194.81 H73.79

G90 ; use absolute coordinates
M83 ; extruder relative mode

M140 S100 ; set bed temp

M104 S170 ; set extruder temp for bed leveling
M109 R170 ; wait for temp


M84 E ; turn off E motor

G28 ; home all without mesh bed level

G1 X42 Y-4 Z5 F4800

M302 S160 ; lower cold extrusion limit to 160C


G1 E-2 F2400 ; retraction


M84 E ; turn off E motor

G29 P9 X10 Y-4 W32 H4



G0 Z40 F10000

M190 S100 ; wait for bed temp

M107

;
; MBL
;
M84 E ; turn off E motor
G29 P1 ; invalidate mbl & probe print area
G29 P1 X0 Y0 W50 H20 C ; probe near purge place
G29 P3.2 ; interpolate mbl probes
G29 P3.13 ; extrapolate mbl outside probe area
G29 A ; activate mbl

; prepare for purge
M104 S255
G0 X0 Y-4 Z15 F4800 ; move away and ready for the purge
M109 S255

G92 E0
M569 S0 E ; set spreadcycle mode for extruder

;
; Extrude purge line
;
G92 E0 ; reset extruder position
G1 E2 F2400 ; deretraction after the initial one before nozzle cleaning
G0 E7 X15 Z0.2 F500 ; purge
G0 X25 E4 F500 ; purge
G0 X35 E4 F650 ; purge
G0 X45 E4 F800 ; purge
G0 X48 Z0.05 F8000 ; wipe, move close to the bed
G0 X51 Z0.2 F8000 ; wipe, move quickly away from the bed

G92 E0
M221 S100 ; set flow to 100%
G21 ; set units to millimeters
G90 ; use absolute coordinates
M83 ; use relative distances for extrusion
M900 K0.04 ; Filament gcode



M142 S40 ; set heatbreak target temp
M107
;LAYER_CHANGE
;Z:0.2
;HEIGHT:0.2
;BEFORE_LAYER_CHANGE
G92 E0.0
;0.2


G1 E-.8 F2100
G1 Z.2 F720
;AFTER_LAYER_CHANGE
;0.2
G1 Z.4
G1 X29.188 Y70.566 F12000
G1 Z.2 F720
G1 E.8 F1500
M204 P600
;TYPE:Skirt/Brim
;WIDTH:0.5
G1 F1200
G1 X29.495 Y70.505 E.0119
G1 X220.55 Y70.51 E7.2613
G1 X220.814 Y70.567 E.01026
G1 X221.186 Y70.732 E.01547
G1 X221.365 Y70.861 E.00839
G1 X221.648 Y71.144 E.01521
G1 X221.822 Y71.405 E.01192
G1 X221.944 Y71.698 E.01206
G1 X222.005 Y72.005 E.0119
G1 X222.005 Y137.995 E2.50804
G1 X221.944 Y138.302 E.0119
G1 X221.822 Y138.596 E.0121
G1 X221.676 Y138.822 E.01023
G1 X221.293 Y139.197 E.02037
G1 X221.106 Y139.312 E.00834
G1 X220.812 Y139.434 E.0121
G1 X220.505 Y139.495 E.0119
G1 X29.495 Y139.495 E7.25959
G1 X29.188 Y139.434 E.0119
G1 X28.894 Y139.312 E.0121
G1 X28.668 Y139.166 E.01023
G1 X28.293 Y138.783 E.02037
G1 X28.178 Y138.596 E.00834
G1 X28.056 Y138.302 E.0121
G1 X27.995 Y137.995 E.0119
G1 X27.995 Y72.005 E2.50804
G1 X28.056 Y71.698 E.0119
G1 X28.178 Y71.404 E.0121
G1 X28.324 Y71.178 E.01023
G1 X28.707 Y70.803 E.02037
G1 X28.894 Y70.688 E.00834
G1 X29.132 Y70.589 E.0098
M204 P1000
G1 X29.307 Y71.012 F12000
M204 P600
G1 F1200
G1 X29.518 Y70.962 E.00824
G1 X220.524 Y70.967 E7.25944
G1 X220.654 Y70.996 E.00506
G1 X220.945 Y71.121 E.01204
G1 X221.056 Y71.199 E.00516
G1 X221.309 Y71.452 E.0136
G1 X221.409 Y71.601 E.00682
G1 X221.513 Y71.852 E.01033
G1 X221.548 Y72.028 E.00682
G1 X221.548 Y137.972 E2.50629
G1 X221.513 Y138.148 E.00682
M73 P1 R70
G1 X221.409 Y138.399 E.01033
G1 X221.31 Y138.547 E.00677
G1 X221.027 Y138.825 E.01508
G1 X220.912 Y138.898 E.00518
G1 X220.658 Y139.003 E.01045
G1 X220.482 Y139.038 E.00682
G1 X29.518 Y139.038 E7.25784
G1 X29.342 Y139.003 E.00682
G1 X29.091 Y138.899 E.01033
G1 X28.943 Y138.8 E.00677
G1 X28.665 Y138.517 E.01508
G1 X28.592 Y138.402 E.00518
G1 X28.487 Y138.148 E.01045
G1 X28.452 Y137.972 E.00682
G1 X28.452 Y72.028 E2.50629
G1 X28.487 Y71.852 E.00682
G1 X28.591 Y71.601 E.01033
G1 X28.69 Y71.453 E.00677
G1 X28.973 Y71.175 E.01508
G1 X29.088 Y71.102 E.00518
G1 X29.252 Y71.035 E.00673
M204 P1000
G1 X29.427 Y71.457 F12000
M204 P600
G1 F1200
G1 X29.54 Y71.419 E.00453
G1 X220.46 Y71.419 E7.25617
G1 X220.504 Y71.428 E.00171
G1 X220.751 Y71.54 E.01031
G1 X220.97 Y71.759 E.01177
G1 X221.082 Y72.006 E.01031
G1 X221.091 Y72.05 E.00171
G1 X221.091 Y137.95 E2.50462
G1 X221.082 Y137.994 E.00171
G1 X220.97 Y138.241 E.01031
G1 X220.751 Y138.46 E.01177
G1 X220.504 Y138.572 E.01031
G1 X220.46 Y138.581 E.00171
G1 X29.54 Y138.581 E7.25617
G1 X29.496 Y138.572 E.00171
G1 X29.249 Y138.46 E.01031
G1 X29.03 Y138.241 E.01177
G1 X29.005 Y138.204 E.0017
G1 X28.909 Y137.95 E.01032
G1 X28.909 Y72.05 E2.50462
G1 X28.918 Y72.006 E.00171
G1 X29.03 Y71.759 E.01031
G1 X29.249 Y71.54 E.01177
G1 X29.371 Y71.48 E.00517
M204 P1000
G1 X29.546 Y71.902 F12000
M204 P600
G1 F1200
G1 X29.608 Y71.876 E.00256
G1 X220.392 Y71.876 E7.251
G1 X220.476 Y71.911 E.00346
M73 P2 R70
G1 X220.599 Y72.034 E.00661
G1 X220.634 Y72.118 E.00346
G1 X220.634 Y137.882 E2.49945
G1 X220.599 Y137.966 E.00346
G1 X220.476 Y138.089 E.00661
G1 X220.392 Y138.124 E.00346
G1 X29.608 Y138.124 E7.251
G1 X29.524 Y138.089 E.00346
G1 X29.401 Y137.966 E.00661
G1 X29.366 Y137.882 E.00346
G1 X29.366 Y72.118 E2.49945
G1 X29.401 Y72.034 E.00346
G1 X29.499 Y71.937 E.00524
M204 P1000
; printing object Laser_Feedback_Control_Cirucuit_Cut.stl id:0 copy 0
G1 X30.402 Y72.912 F12000
M204 P600
;TYPE:Perimeter
;WIDTH:0.499999
G1 F1200
G1 X33.277 Y72.912 E.10927
;WIDTH:0.538507
M73 P2 R69
G1 X33.468 Y72.931 E.00791
;WIDTH:0.577015
G1 X33.66 Y72.951 E.00857
;WIDTH:0.615522
G1 X33.851 Y72.97 E.00914
G1 X33.748 Y73.013 E.00531
;WIDTH:0.582684
G1 X33.474 Y73.134 E.01344
;WIDTH:0.541342
G1 X33.199 Y73.255 E.01245
;WIDTH:0.499999
G1 X32.689 Y73.566 E.0227
G1 X32.25 Y73.971 E.0227
G1 X31.9 Y74.455 E.0227
G1 X31.653 Y74.999 E.02271
G1 X31.519 Y75.582 E.02274
G1 X31.506 Y76.196 E.02334
G1 X31.649 Y76.91 E.02768
G1 X31.894 Y77.455 E.02271
G1 X32.241 Y77.941 E.0227
G1 X32.678 Y78.348 E.0227
G1 X33.187 Y78.661 E.02271
G1 X33.748 Y78.867 E.02271
G1 X34.339 Y78.957 E.02272
G1 X34.936 Y78.928 E.02272
G1 X35.515 Y78.782 E.02269
G1 X36.054 Y78.524 E.02271
G1 X36.531 Y78.164 E.02271
G1 X36.927 Y77.718 E.02267
G1 X37.227 Y77.201 E.02272
G1 X37.418 Y76.635 E.0227
G1 X37.493 Y76.025 E.02336
G1 X37.421 Y75.3 E.02769
G1 X37.232 Y74.733 E.02272
G1 X36.935 Y74.215 E.02269
G1 X36.54 Y73.766 E.02273
G1 X36.065 Y73.404 E.0227
G1 X35.527 Y73.144 E.02271
;WIDTH:0.541744
G1 X35.239 Y73.049 E.01258
;WIDTH:0.583488
G1 X34.952 Y72.954 E.01359
G1 X35.255 Y72.933 E.01365
;WIDTH:0.541744
G1 X35.559 Y72.912 E.01264
;WIDTH:0.499999
G1 X214.287 Y72.912 E6.79279
;WIDTH:0.538507
G1 X214.478 Y72.931 E.00791
;WIDTH:0.577015
G1 X214.67 Y72.951 E.00857
;WIDTH:0.615522
G1 X214.861 Y72.97 E.00914
G1 X214.758 Y73.013 E.00531
;WIDTH:0.582682
G1 X214.484 Y73.134 E.01344
;WIDTH:0.541341
G1 X214.209 Y73.255 E.01245
;WIDTH:0.499999
G1 X213.699 Y73.566 E.0227
G1 X213.26 Y73.971 E.0227
G1 X212.91 Y74.455 E.0227
G1 X212.663 Y74.999 E.02271
G1 X212.529 Y75.581 E.0227
G1 X212.513 Y76.179 E.02274
G1 X212.621 Y76.784 E.02336
G1 X212.904 Y77.455 E.02768
G1 X213.251 Y77.941 E.0227
G1 X213.688 Y78.348 E.0227
G1 X214.197 Y78.661 E.02271
G1 X214.758 Y78.867 E.02271
G1 X215.349 Y78.957 E.02272
G1 X215.946 Y78.928 E.02272
G1 X216.525 Y78.782 E.02269
G1 X217.064 Y78.524 E.02271
G1 X217.541 Y78.165 E.02269
G1 X217.937 Y77.718 E.0227
G1 X218.237 Y77.201 E.02272
G1 X218.431 Y76.615 E.02346
G1 X218.504 Y75.876 E.02822
G1 X218.431 Y75.3 E.02207
G1 X218.242 Y74.733 E.02272
G1 X217.945 Y74.215 E.02269
G1 X217.55 Y73.766 E.02273
G1 X217.075 Y73.405 E.02268
G1 X216.537 Y73.144 E.02273
;WIDTH:0.541743
G1 X216.249 Y73.049 E.01258
;WIDTH:0.583486
G1 X215.962 Y72.954 E.01359
G1 X216.265 Y72.933 E.01365
;WIDTH:0.541743
G1 X216.569 Y72.912 E.01264
;WIDTH:0.499999
G1 X219.598 Y72.912 E.11512
G1 X219.598 Y73.79 E.03337
G1 X219.598 Y137.088 E2.40572
G1 X216.424 Y137.088 E.12063
;WIDTH:0.547876
G1 X216.257 Y137.064 E.00708
;WIDTH:0.595752
G1 X216.091 Y137.04 E.00771
;WIDTH:0.643628
G1 X215.924 Y137.016 E.00843
G1 X215.96 Y137.002 E.00193
;WIDTH:0.629724
G1 X216.148 Y136.932 E.00979
;WIDTH:0.586483
G1 X216.337 Y136.862 E.00911
;WIDTH:0.543241
G1 X216.525 Y136.792 E.00835
;WIDTH:0.499999
G1 X217.064 Y136.534 E.02271
G1 X217.541 Y136.175 E.02269
G1 X217.938 Y135.725 E.02281
G1 X218.237 Y135.211 E.0226
G1 X218.431 Y134.625 E.02346
G1 X218.504 Y133.886 E.02822
G1 X218.431 Y133.31 E.02207
G1 X218.242 Y132.743 E.02272
G1 X217.945 Y132.225 E.02269
G1 X217.55 Y131.776 E.02273
G1 X217.075 Y131.415 E.02268
G1 X216.537 Y131.154 E.02273
G1 X215.959 Y131.005 E.02269
G1 X215.362 Y130.974 E.02272
G1 X214.771 Y131.062 E.02271
G1 X214.209 Y131.265 E.02271
G1 X213.699 Y131.576 E.0227
G1 X213.26 Y131.981 E.0227
G1 X212.91 Y132.465 E.0227
G1 X212.663 Y133.009 E.02271
G1 X212.529 Y133.591 E.0227
G1 X212.513 Y134.189 E.02274
G1 X212.621 Y134.794 E.02336
G1 X212.832 Y135.33 E.02189
G1 X213.164 Y135.847 E.02335
G1 X213.582 Y136.273 E.02268
G1 X214.076 Y136.609 E.02271
G1 X214.627 Y136.84 E.02271
;WIDTH:0.544049
G1 X214.818 Y136.9 E.00834
;WIDTH:0.588099
G1 X215.01 Y136.961 E.00913
;WIDTH:0.632148
G1 X215.201 Y137.022 E.00982
G1 X215.048 Y137.044 E.00757
;WIDTH:0.588099
G1 X214.894 Y137.066 E.00705
;WIDTH:0.544049
G1 X214.74 Y137.088 E.00648
;WIDTH:0.499999
G1 X35.414 Y137.088 E6.81551
;WIDTH:0.547876
G1 X35.247 Y137.064 E.00708
;WIDTH:0.595752
G1 X35.081 Y137.04 E.00771
;WIDTH:0.643628
G1 X34.914 Y137.016 E.00843
G1 X34.95 Y137.002 E.00193
;WIDTH:0.629726
G1 X35.138 Y136.932 E.00979
;WIDTH:0.586484
G1 X35.327 Y136.862 E.00911
;WIDTH:0.543242
G1 X35.515 Y136.792 E.00835
;WIDTH:0.499999
G1 X36.054 Y136.534 E.02271
G1 X36.531 Y136.175 E.02269
M73 P3 R69
G1 X36.927 Y135.728 E.0227
G1 X37.227 Y135.211 E.02272
G1 X37.418 Y134.645 E.0227
G1 X37.494 Y134.052 E.02272
G1 X37.446 Y133.44 E.02333
G1 X37.232 Y132.743 E.02771
G1 X36.935 Y132.225 E.02269
G1 X36.54 Y131.776 E.02273
G1 X36.065 Y131.415 E.02268
G1 X35.512 Y131.15 E.02331
G1 X34.949 Y131.005 E.0221
G1 X34.352 Y130.974 E.02272
G1 X33.761 Y131.062 E.02271
G1 X33.199 Y131.265 E.02271
G1 X32.689 Y131.576 E.0227
G1 X32.25 Y131.981 E.0227
G1 X31.9 Y132.465 E.0227
G1 X31.653 Y133.009 E.02271
G1 X31.519 Y133.591 E.0227
G1 X31.503 Y134.189 E.02274
G1 X31.605 Y134.777 E.02268
G1 X31.822 Y135.334 E.02272
G1 X32.145 Y135.836 E.02269
G1 X32.562 Y136.265 E.02274
G1 X33.07 Y136.61 E.02334
G1 X33.601 Y136.833 E.02189
;WIDTH:0.544048
G1 X33.798 Y136.896 E.00862
;WIDTH:0.588097
G1 X33.995 Y136.959 E.00938
;WIDTH:0.632146
G1 X34.191 Y137.022 E.01009
G1 X34.038 Y137.044 E.00757
;WIDTH:0.588097
G1 X33.884 Y137.066 E.00705
;WIDTH:0.544048
G1 X33.73 Y137.088 E.00648
;WIDTH:0.499999
G1 X30.402 Y137.088 E.12648
G1 X30.402 Y72.972 E2.43681
M204 P1000
G1 X29.945 Y72.455 F12000
M204 P600
;TYPE:External perimeter
G1 F1200
G1 X220.055 Y72.455 E7.22537
G1 X220.055 Y137.545 E2.47383
G1 X29.945 Y137.545 E7.22537
G1 X29.945 Y72.515 E2.47155
M204 P1000
G1 X30.343 Y72.499 F12000
G1 E-.64 F2100
;WIPE_START
G1 F9600
G1 X30.715 Y72.515 E-.16
;WIPE_END
G1 Z.4 F720
G1 X218.05 Y75.946 F12000
G1 Z.2 F720
G1 E.8 F1500
M204 P600
M73 P3 R68
G1 F1200
G1 X217.977 Y76.56 E.0235
G1 X217.807 Y77.044 E.0195
G1 X217.547 Y77.479 E.01926
G1 X217.206 Y77.854 E.01926
G1 X216.797 Y78.153 E.01926
G1 X216.337 Y78.366 E.01927
G1 X215.844 Y78.483 E.01926
G1 X215.338 Y78.5 E.01924
G1 X214.838 Y78.417 E.01926
G1 X214.364 Y78.236 E.01928
G1 X213.936 Y77.965 E.01925
G1 X213.57 Y77.614 E.01927
G1 X213.281 Y77.198 E.01925
G1 X213.047 Y76.617 E.02381
G1 X212.965 Y76.111 E.01948
G1 X212.986 Y75.604 E.01929
G1 X213.106 Y75.112 E.01925
G1 X213.322 Y74.654 E.01925
G1 X213.624 Y74.247 E.01926
G1 X214.001 Y73.908 E.01927
G1 X214.438 Y73.651 E.01927
G1 X214.917 Y73.485 E.01927
G1 X215.419 Y73.418 E.01925
G1 X215.924 Y73.451 E.01923
G1 X216.413 Y73.584 E.01926
G1 X216.866 Y73.811 E.01926
G1 X217.265 Y74.124 E.01927
G1 X217.595 Y74.509 E.01927
G1 X217.841 Y74.952 E.01926
G1 X217.994 Y75.435 E.01926
G1 X218.044 Y75.886 E.01725
M204 P1000
G1 X218.395 Y76.149 F12000
G1 E-.64 F2100
;WIPE_START
G1 F9600
G1 X217.977 Y76.56 E-.14076
G1 X217.946 Y76.647 E-.01924
;WIPE_END
G1 Z.4 F720
G1 X214.861 Y72.97 F12000
G1 Z.2 F720
G1 E.8 F1500
M204 P600
;TYPE:Perimeter
;WIDTH:0.615522
G1 F1200
G1 X215.154 Y72.953 E.01397
;WIDTH:0.581246
G1 X215.447 Y72.936 E.01314
;WIDTH:0.583486
G1 X215.962 Y72.954 E.02316
M204 P1000
G1 E-.64 F2100
;WIPE_START
G1 F9600
G1 X215.447 Y72.936 E-.10709
G1 X215.193 Y72.951 E-.05291
;WIPE_END
G1 Z.4 F720
G1 X202.956 Y110.484 F12000
G1 Z.2 F720
G1 E.8 F1500
M204 P600
;WIDTH:0.499999
G1 F1200
G1 X202.378 Y110.039 E.02772
G1 X201.889 Y109.482 E.02817
G1 X201.494 Y108.825 E.02914
G1 X201.31 Y108.395 E.01778
G1 X201.178 Y107.958 E.01735
G1 X201.079 Y107.299 E.02533
G1 X201.106 Y106.477 E.03126
G1 X201.269 Y105.782 E.02713
G1 X201.475 Y105.274 E.02083
G1 X201.71 Y104.815 E.0196
G1 X202.126 Y104.267 E.02615
G1 X202.219 Y104.167 E.00519
G1 X202.733 Y103.713 E.02606
G1 X203.439 Y103.29 E.03128
G1 X204.214 Y103.015 E.03125
G1 X204.859 Y102.92 E.02478
G1 X205.164 Y102.896 E.01163
G1 X205.849 Y102.947 E.02611
G1 X206.644 Y103.157 E.03125
G1 X207.382 Y103.52 E.03126
G1 X208.033 Y104.022 E.03124
G1 X208.572 Y104.643 E.03125
G1 X208.977 Y105.358 E.03123
G1 X209.215 Y106.084 E.02904
G1 X209.303 Y106.617 E.02053
G1 X209.313 Y107.148 E.02018
G1 X209.276 Y107.688 E.02057
G1 X209.102 Y108.373 E.02686
G1 X208.875 Y108.877 E.02101
G1 X208.686 Y109.236 E.01542
G1 X208.272 Y109.783 E.02607
G1 X207.665 Y110.337 E.03123
G1 X206.959 Y110.76 E.03128
G1 X206.184 Y111.035 E.03125
G1 X205.37 Y111.151 E.03125
G1 X204.549 Y111.103 E.03126
G1 X203.836 Y110.916 E.02801
G1 X203.004 Y110.521 E.035
M204 P1000
G1 X203.225 Y110.124 F12000
M204 P600
;TYPE:External perimeter
G1 F1200
G1 X202.663 Y109.682 E.02717
G1 X202.239 Y109.188 E.02474
G1 X201.895 Y108.606 E.02569
G1 X201.652 Y107.977 E.02563
G1 X201.533 Y107.248 E.02807
G1 X201.563 Y106.5 E.02845
G1 X201.712 Y105.895 E.02368
G1 X202.024 Y105.186 E.02944
G1 X202.49 Y104.543 E.03018
G1 X203.038 Y104.053 E.02794
G1 X203.667 Y103.686 E.02768
G1 X204.359 Y103.448 E.02781
G1 X205.13 Y103.352 E.02953
G1 X205.815 Y103.403 E.02611
G1 X206.52 Y103.597 E.02779
G1 X207.173 Y103.926 E.02779
M73 P4 R68
G1 X207.748 Y104.379 E.02782
G1 X208.222 Y104.937 E.02783
G1 X208.576 Y105.577 E.0278
G1 X208.778 Y106.219 E.02558
G1 X208.868 Y106.825 E.02328
G1 X208.835 Y107.55 E.02758
G1 X208.713 Y108.048 E.01949
G1 X208.601 Y108.392 E.01375
G1 X208.346 Y108.921 E.02232
G1 X208.028 Y109.348 E.02023
G1 X207.848 Y109.566 E.01074
G1 X207.362 Y109.995 E.02464
G1 X206.731 Y110.364 E.02778
G1 X206.039 Y110.602 E.02781
G1 X205.313 Y110.697 E.02783
G1 X204.583 Y110.647 E.02781
G1 X203.96 Y110.476 E.02455
G1 X203.279 Y110.15 E.0287
M204 P1000
G1 X202.87 Y110.308 F12000
G1 E-.64 F2100
;WIPE_START
G1 F9600
G1 X202.666 Y109.684 E-.16
;WIPE_END
G1 Z.4 F720
G1 X200.019 Y112.301 F12000
G1 Z.2 F720
G1 E.8 F1500
M204 P600
;TYPE:Perimeter
G1 F1200
G1 X199.971 Y112.354 E.00272
G1 X199.562 Y112.648 E.01914
G1 X199.051 Y112.863 E.02107
G1 X198.554 Y112.951 E.01918
G1 X198.033 Y112.923 E.01983
G1 X197.533 Y112.771 E.01986
G1 X197.135 Y112.552 E.01727
G1 X196.789 Y112.259 E.01723
G1 X196.553 Y111.974 E.01406
G1 X196.303 Y111.497 E.02047
G1 X196.182 Y111.06 E.01723
G1 X196.15 Y110.607 E.01726
G1 X196.209 Y110.157 E.01725
G1 X196.402 Y109.641 E.02094
G1 X196.654 Y109.26 E.01736
G1 X197.006 Y108.9 E.01914
G1 X197.43 Y108.626 E.01919
G1 X197.93 Y108.448 E.02017
G1 X198.44 Y108.395 E.01949
G1 X198.892 Y108.443 E.01728
G1 X199.325 Y108.579 E.01725
G1 X199.739 Y108.81 E.01802
G1 X200.069 Y109.091 E.01647
G1 X200.35 Y109.448 E.01727
G1 X200.555 Y109.853 E.01725
G1 X200.676 Y110.29 E.01723
G1 X200.708 Y110.743 E.01726
G1 X200.649 Y111.193 E.01725
