; generated by PrusaSlicer 2.6.0+win64 on 2023-09-06 at 21:19:27 UTC

; 

; external perimeters extrusion width = 0.42mm
; perimeters extrusion width = 0.44mm
; infill extrusion width = 0.44mm
; solid infill extrusion width = 0.44mm
; top infill extrusion width = 0.44mm
; first layer extrusion width = 0.44mm

;TYPE:Custom
G90 ; use absolute coordinates
M83 ; extruder relative mode
M140 S60 ; set final bed temp
M104 S150 ; set temporary nozzle temp to prevent oozing during homing
G4 S10 ; allow partial nozzle warmup
G28 ; home all axis
G1 Z50 F240
G1 X2 Y10 F3000
M104 S210 ; set final nozzle temp
M190 S60 ; wait for bed temp to stabilize
M109 S210 ; wait for nozzle temp to stabilize
G1 Z0.28 F240
G92 E0
G1 Y140 E10 F1500 ; prime the nozzle
G1 X2.3 F5000
G92 E0
G1 Y10 E10 F1200 ; prime the nozzle
G92 E0
G21 ; set units to millimeters
G90 ; use absolute coordinates
M83 ; use relative distances for extrusion
; Filament gcode
M107
;LAYER_CHANGE
;Z:0.2
;HEIGHT:0.2
;BEFORE_LAYER_CHANGE
G92 E0
;0.2


G1 E-5 F3600
G1 Z.2 F9000
;AFTER_LAYER_CHANGE
;0.2
G1 X12.766 Y71.859
G1 E5 F2400
M204 S500
;TYPE:Skirt/Brim
;WIDTH:0.44
G1 F1200
G1 X13.767 Y71.708 E.03342
G1 X206.233 Y71.708 E6.35471
G1 X207.822 Y72.102 E.05405
G1 X208.636 Y72.703 E.03341
G1 X209.807 Y73.874 E.05468
G1 X210.651 Y75.276 E.05403
G1 X210.802 Y76.277 E.03342
G1 X210.802 Y143.723 E2.22689
G1 X210.408 Y145.312 E.05405
G1 X209.807 Y146.126 E.03341
G1 X208.636 Y147.297 E.05468
G1 X207.234 Y148.141 E.05403
G1 X206.233 Y148.292 E.03342
G1 X13.767 Y148.292 E6.35471
G1 X12.178 Y147.898 E.05405
G1 X11.364 Y147.297 E.03341
G1 X10.193 Y146.126 E.05468
G1 X9.349 Y144.724 E.05403
G1 X9.198 Y143.723 E.03342
G1 X9.198 Y76.277 E2.22689
G1 X9.592 Y74.688 E.05405
G1 X10.193 Y73.874 E.03341
G1 X11.364 Y72.703 E.05468
G1 X12.715 Y71.89 E.05206
G1 E-3.5 F3600
;WIPE_START
G1 F7200
G1 X13.767 Y71.708 E-.50712
G1 X15.857 Y71.708 E-.99288
;WIPE_END
G1 X14.001 Y75.382 F9000
G1 E5 F2400
G1 F1200
G1 X14.294 Y75.318 E.0099
G1 X205.746 Y75.322 E6.32123
G1 X205.997 Y75.38 E.00851
G1 X206.334 Y75.539 E.0123
G1 X206.88 Y76.053 E.02476
G1 X207.044 Y76.307 E.00998
G1 X207.192 Y76.787 E.01658
G1 X207.192 Y143.196 E2.19265
G1 X207.128 Y143.489 E.0099
G1 X206.894 Y143.933 E.01657
G1 X206.443 Y144.384 E.02106
G1 X205.999 Y144.618 E.01657
G1 X205.706 Y144.682 E.0099
G1 X14.294 Y144.682 E6.31991
G1 X14.001 Y144.618 E.0099
G1 X13.557 Y144.384 E.01657
G1 X13.106 Y143.933 E.02106
G1 X12.872 Y143.489 E.01657
G1 X12.808 Y143.196 E.0099
G1 X12.808 Y76.804 E2.19208
G1 X12.872 Y76.511 E.0099
G1 X13.106 Y76.067 E.01657
G1 X13.557 Y75.616 E.02106
G1 X13.948 Y75.41 E.01459
G1 X14.126 Y75.763 F9000
G1 F1200
G1 X14.314 Y75.715 E.00641
G1 X205.723 Y75.719 E6.31981
G1 X205.846 Y75.748 E.00417
G1 X206.134 Y75.884 E.01052
G1 X206.588 Y76.323 E.02085
G1 X206.676 Y76.457 E.00529
G1 X206.795 Y76.82 E.01261
G1 X206.795 Y143.176 E2.1909
G1 X206.761 Y143.336 E.0054
G1 X206.589 Y143.676 E.01258
G1 X206.186 Y144.079 E.01882
G1 X205.846 Y144.251 E.01258
G1 X205.687 Y144.285 E.00537
G1 X14.314 Y144.285 E6.31862
G1 X14.154 Y144.251 E.0054
G1 X13.814 Y144.079 E.01258
G1 X13.411 Y143.676 E.01882
G1 X13.239 Y143.336 E.01258
G1 X13.205 Y143.177 E.00537
G1 X13.205 Y76.823 E2.19083
G1 X13.239 Y76.664 E.00537
G1 X13.411 Y76.324 E.01258
G1 X13.814 Y75.921 E.01882
G1 X14.073 Y75.79 E.00958
G1 X14.241 Y76.146 F9000
G1 F1200
G1 X14.332 Y76.112 E.00321
G1 X205.702 Y76.119 E6.31852
G1 X205.932 Y76.228 E.0084
G1 X206.293 Y76.589 E.01686
G1 X206.398 Y76.857 E.0095
G1 X206.391 Y143.192 E2.1902
G1 X206.282 Y143.422 E.0084
G1 X205.932 Y143.772 E.01634
G1 X205.668 Y143.888 E.00952
G1 X14.298 Y143.881 E6.31852
G1 X14.068 Y143.772 E.0084
G1 X13.718 Y143.422 E.01634
G1 X13.602 Y143.158 E.00952
G1 X13.602 Y76.842 E2.18958
G1 X13.718 Y76.578 E.00952
G1 X14.068 Y76.228 E.01634
G1 X14.187 Y76.172 E.00434
G1 X14.336 Y76.532 F9000
G1 F1200
G1 X14.391 Y76.509 E.00197
G1 X205.609 Y76.509 E6.3135
G1 X205.682 Y76.54 E.00262
G1 X205.97 Y76.828 E.01345
G1 X206.001 Y76.901 E.00262
G1 X206.001 Y143.099 E2.18568
G1 X205.97 Y143.172 E.00262
G1 X205.682 Y143.46 E.01345
G1 X205.609 Y143.491 E.00262
G1 X14.391 Y143.491 E6.3135
G1 X14.318 Y143.46 E.00262
G1 X14.03 Y143.172 E.01345
G1 X13.999 Y143.099 E.00262
G1 X13.999 Y76.901 E2.18568
G1 X14.03 Y76.828 E.00262
G1 X14.289 Y76.568 E.01212
G1 X14.513 Y76.906 F9000
G1 F1200
G1 X205.487 Y76.906 E6.30545
G1 X205.604 Y77.023 E.00546
G1 X205.604 Y142.977 E2.17762
G1 X205.487 Y143.094 E.00546
G1 X14.513 Y143.094 E6.30545
G1 X14.396 Y142.977 E.00546
G1 X14.396 Y77.023 E2.17762
G1 X14.47 Y76.949 E.00346
G1 X15.609 Y78.119 F9000
;TYPE:Perimeter
;WIDTH:0.439999
G1 F1200
G1 X204.391 Y78.119 E6.23306
G1 X204.391 Y141.881 E2.10525
G1 X15.609 Y141.881 E6.23306
G1 X15.609 Y78.179 E2.10326
G1 X15.212 Y77.722 F9000
G1 F1200
G1 X204.788 Y77.722 E6.25928
G1 X204.788 Y142.278 E2.13146
G1 X15.212 Y142.278 E6.25928
G1 X15.212 Y77.782 E2.12948
G1 X14.815 Y77.325 F9000
;TYPE:External perimeter
G1 F1200
G1 X205.185 Y77.325 E6.28549
G1 X205.185 Y142.675 E2.15768
G1 X14.815 Y142.675 E6.28549
G1 X14.815 Y77.385 E2.1557
G1 X15.213 Y77.369 F9000
G1 E-3.5 F3600
;WIPE_START
G1 F7200
G1 X17.973 Y77.384 E-1.5
;WIPE_END
G1 X202.245 Y116.237 F9000
G1 E5 F2400
;TYPE:Perimeter
G1 F1200
G1 X202.111 Y116.546 E.01112
G1 X201.828 Y116.952 E.01634
G1 X201.471 Y117.294 E.01632
G1 X201.052 Y117.559 E.01637
G1 X200.589 Y117.735 E.01635
G1 X200.101 Y117.816 E.01633
G1 X199.502 Y117.785 E.0198
G1 X198.945 Y117.614 E.01924
G1 X198.509 Y117.368 E.01653
G1 X198.115 Y117.021 E.01733
G1 X197.832 Y116.653 E.01533
G1 X197.612 Y116.209 E.01636
G1 X197.486 Y115.733 E.01626
G1 X197.459 Y115.218 E.01703
G1 X197.555 Y114.654 E.01889
G1 X197.639 Y114.392 E.00908
G1 X197.872 Y113.955 E.01635
G1 X198.186 Y113.573 E.01633
G1 X198.57 Y113.26 E.01636
G1 X199.008 Y113.03 E.01633
G1 X199.484 Y112.891 E.01637
G1 X199.977 Y112.849 E.01634
G1 X200.469 Y112.906 E.01635
G1 X200.94 Y113.058 E.01634
G1 X201.371 Y113.302 E.01635
G1 X201.745 Y113.626 E.01634
G1 X202.048 Y114.017 E.01633
G1 X202.268 Y114.461 E.01636
G1 X202.399 Y115.013 E.01873
G1 X202.412 Y115.533 E.01717
G1 X202.308 Y116.092 E.01877
G1 X202.269 Y116.182 E.00324
G1 X201.875 Y116.095 F9000
G1 F1200
G1 X201.692 Y116.475 E.01393
G1 X201.431 Y116.8 E.01376
G1 X201.111 Y117.066 E.01374
G1 X200.745 Y117.264 E.01374
G1 X200.347 Y117.385 E.01373
G1 X199.933 Y117.425 E.01373
G1 X199.519 Y117.382 E.01374
G1 X199.121 Y117.258 E.01376
G1 X198.757 Y117.058 E.01371
G1 X198.419 Y116.766 E.01475
G1 X198.18 Y116.463 E.01274
G1 X197.992 Y116.092 E.01373
G1 X197.881 Y115.692 E.01371
G1 X197.857 Y115.243 E.01485
G1 X197.948 Y114.717 E.01763
G1 X198.165 Y114.228 E.01766
G1 X198.298 Y114.049 E.00736
G1 X198.672 Y113.673 E.01751
G1 X199.125 Y113.41 E.01729
G1 X199.533 Y113.285 E.01409
G1 X199.947 Y113.245 E.01373
G1 X200.361 Y113.288 E.01374
G1 X200.758 Y113.412 E.01373
G1 X201.123 Y113.612 E.01374
G1 X201.441 Y113.881 E.01375
G1 X201.7 Y114.207 E.01375
G1 X201.888 Y114.578 E.01373
G1 X202.002 Y115.023 E.01517
G1 X202.015 Y115.543 E.01717
G1 X201.901 Y116.041 E.01687
G1 X201.525 Y115.933 F9000
;TYPE:External perimeter
G1 F1200
G1 X201.375 Y116.235 E.01113
G1 X201.168 Y116.502 E.01115
G1 X200.913 Y116.722 E.01112
G1 X200.619 Y116.887 E.01113
G1 X200.298 Y116.991 E.01114
G1 X199.962 Y117.029 E.01116
G1 X199.626 Y117 E.01114
G1 X199.165 Y116.834 E.01618
G1 X198.757 Y116.55 E.01641
G1 X198.529 Y116.273 E.01185
G1 X198.371 Y115.975 E.01114
G1 X198.276 Y115.652 E.01112
G1 X198.248 Y115.311 E.0113
G1 X198.338 Y114.788 E.01752
G1 X198.505 Y114.435 E.01289
G1 X198.615 Y114.289 E.00604
G1 X198.967 Y113.948 E.01618
G1 X199.261 Y113.783 E.01113
G1 X199.582 Y113.679 E.01114
G1 X199.918 Y113.641 E.01116
G1 X200.254 Y113.67 E.01114
G1 X200.577 Y113.765 E.01112
G1 X200.876 Y113.923 E.01117
G1 X201.137 Y114.136 E.01112
G1 X201.351 Y114.397 E.01114
G1 X201.509 Y114.695 E.01114
G1 X201.605 Y115.033 E.0116
G1 X201.618 Y115.553 E.01717
G1 X201.54 Y115.875 E.01094
G1 X201.745 Y116.189 F9000
G1 E-3.5 F3600
;WIPE_START
G1 F7200
G1 X201.375 Y116.235 E-.18811
G1 X201.168 Y116.502 E-.16048
G1 X200.913 Y116.722 E-.15997
G1 X200.619 Y116.887 E-.16014
G1 X200.298 Y116.991 E-.16028
G1 X199.962 Y117.029 E-.16062
G1 X199.626 Y117 E-.16019
G1 X199.165 Y116.834 E-.23274
G1 X198.962 Y116.693 E-.11747
;WIPE_END
G1 X194.372 Y113.873 F9000
G1 E5 F2400
;TYPE:Perimeter
G1 F1200
G1 X194.219 Y114.399 E.01809
G1 X194.065 Y114.765 E.01311
G1 X193.798 Y115.257 E.01848
G1 X193.264 Y115.923 E.02819
G1 X192.819 Y116.303 E.01932
G1 X192.398 Y116.601 E.01703
G1 X191.878 Y116.869 E.01932
G1 X191.232 Y117.086 E.0225
G1 X190.461 Y117.199 E.02573
G1 X189.555 Y117.161 E.02994
G1 X188.771 Y116.961 E.02671
G1 X188.102 Y116.65 E.02436
G1 X187.795 Y116.47 E.01175
G1 X187.281 Y116.061 E.02169
G1 X186.875 Y115.607 E.02011
G1 X186.571 Y115.192 E.01699
G1 X186.293 Y114.68 E.01924
G1 X186.119 Y114.183 E.01739
G1 X185.986 Y113.7 E.01654
G1 X185.925 Y113.106 E.01972
G1 X185.936 Y112.594 E.01691
G1 X186.001 Y112.106 E.01625
G1 X186.142 Y111.553 E.01884
G1 X186.356 Y111.063 E.01765
G1 X186.595 Y110.61 E.01691
G1 X186.994 Y110.083 E.02182
G1 X187.435 Y109.668 E.01999
G1 X187.781 Y109.389 E.01468
G1 X188.35 Y109.06 E.0217
G1 X188.947 Y108.839 E.02102
G1 X189.418 Y108.717 E.01606
G1 X189.996 Y108.645 E.01923
G1 X190.849 Y108.689 E.0282
G1 X191.675 Y108.901 E.02816
G1 X192.443 Y109.272 E.02816
G1 X193.123 Y109.789 E.0282
G1 X193.686 Y110.43 E.02817
G1 X194.069 Y111.091 E.02522
G1 X194.254 Y111.566 E.01683
G1 X194.403 Y112.061 E.01707
G1 X194.475 Y112.711 E.02159
G1 X194.469 Y113.196 E.01601
G1 X194.414 Y113.729 E.01769
G1 X194.389 Y113.815 E.00296
G1 X193.993 Y113.767 F9000
G1 F1200
G1 X193.84 Y114.282 E.01774
G1 X193.579 Y114.828 E.01998
G1 X193.382 Y115.165 E.01289
G1 X192.957 Y115.671 E.02182
G1 X192.571 Y115.993 E.0166
G1 X192.217 Y116.248 E.0144
G1 X191.696 Y116.516 E.01934
G1 X191.113 Y116.707 E.02026
G1 X190.412 Y116.805 E.02337
G1 X189.585 Y116.765 E.02734
G1 X188.879 Y116.579 E.02411
G1 X188.283 Y116.297 E.02177
G1 X188.042 Y116.16 E.00915
G1 X187.529 Y115.751 E.02166
G1 X187.179 Y115.352 E.01752
G1 X186.92 Y115.002 E.01438
G1 X186.641 Y114.49 E.01925
G1 X186.378 Y113.639 E.02941
G1 X186.313 Y113.004 E.02108
G1 X186.348 Y112.392 E.02024
G1 X186.519 Y111.682 E.02411
G1 X186.843 Y110.967 E.02592
G1 X187.311 Y110.323 E.02628
G1 X187.98 Y109.733 E.02945
G1 X188.548 Y109.404 E.02167
G1 X189.074 Y109.215 E.01845
G1 X189.468 Y109.111 E.01345
G1 X190.046 Y109.039 E.01923
G1 X190.819 Y109.085 E.02557
G1 X191.568 Y109.283 E.02558
G1 X192.262 Y109.626 E.02556
G1 X192.875 Y110.099 E.02556
G1 X193.382 Y110.685 E.02558
G1 X193.72 Y111.281 E.02262
G1 X194.002 Y112.096 E.02847
G1 X194.08 Y112.751 E.02178
G1 X194.074 Y113.156 E.01337
G1 X194.01 Y113.71 E.01841
G1 X193.616 Y113.659 F9000
;TYPE:External perimeter
G1 F1200
G1 X193.429 Y114.265 E.02094
G1 X193.1 Y114.877 E.02294
G1 X192.656 Y115.412 E.02295
G1 X192.114 Y115.849 E.02299
G1 X191.514 Y116.163 E.02236
G1 X190.995 Y116.328 E.01798
G1 X190.362 Y116.411 E.02108
G1 X189.615 Y116.369 E.0247
G1 X188.986 Y116.197 E.02153
G1 X188.29 Y115.849 E.02569
G1 X187.776 Y115.44 E.02169
G1 X187.326 Y114.91 E.02296
G1 X186.99 Y114.3 E.02299
G1 X186.773 Y113.598 E.02426
G1 X186.708 Y112.963 E.02108
G1 X186.744 Y112.42 E.01797
G1 X186.904 Y111.78 E.02178
G1 X187.201 Y111.139 E.02333
G1 X187.627 Y110.563 E.02365
G1 X188.146 Y110.1 E.02296
G1 X188.747 Y109.748 E.023
G1 X189.405 Y109.523 E.02296
G1 X190.095 Y109.433 E.02297
G1 X190.789 Y109.481 E.02297
G1 X191.46 Y109.665 E.02297
G1 X192.081 Y109.979 E.02298
G1 X192.628 Y110.41 E.02299
G1 X193.078 Y110.94 E.02296
G1 X193.371 Y111.471 E.02002
G1 X193.623 Y112.213 E.02587
G1 X193.685 Y112.79 E.01916
G1 X193.624 Y113.599 E.02679
G1 X193.916 Y113.924 F9000
G1 E-3.5 F3600
;WIPE_START
G1 F7200
G1 X193.429 Y114.265 E-.32963
G1 X193.1 Y114.877 E-.33004
G1 X192.656 Y115.412 E-.33024
G1 X192.114 Y115.849 E-.33071
G1 X191.779 Y116.024 E-.17938
;WIPE_END
G1 X185.363 Y115.406 F9000
G1 E5 F2400
;TYPE:Perimeter
G1 F1200
G1 X185.367 Y115.507 E.00334
G1 X185.306 Y115.924 E.01391
G1 X185.141 Y116.391 E.01635
G1 X184.869 Y116.837 E.01725
G1 X184.474 Y117.243 E.0187
G1 X184.04 Y117.537 E.01731
G1 X183.539 Y117.735 E.01779
G1 X182.985 Y117.822 E.01852
G1 X182.459 Y117.787 E.01741
G1 X181.964 Y117.646 E.01699
G1 X181.518 Y117.412 E.01663
G1 X181.13 Y117.095 E.01654
G1 X180.782 Y116.653 E.01857
G1 X180.604 Y116.32 E.01247
G1 X180.436 Y115.733 E.02016
G1 X180.415 Y115.176 E.0184
G1 X180.505 Y114.654 E.01749
G1 X180.589 Y114.392 E.00908
G1 X180.822 Y113.955 E.01635
G1 X181.136 Y113.573 E.01633
G1 X181.52 Y113.26 E.01636
G1 X181.958 Y113.03 E.01633
G1 X182.434 Y112.891 E.01637
G1 X182.927 Y112.849 E.01634
G1 X183.419 Y112.906 E.01635
G1 X183.966 Y113.098 E.01914
G1 X184.321 Y113.302 E.01352
G1 X184.695 Y113.626 E.01634
G1 X184.998 Y114.017 E.01633
G1 X185.218 Y114.461 E.01636
G1 X185.348 Y114.972 E.01741
G1 X185.361 Y115.347 E.01239
G1 X184.97 Y115.415 F9000
G1 F1200
G1 X184.926 Y115.807 E.01302
G1 X184.729 Y116.317 E.01805
G1 X184.553 Y116.594 E.01084
G1 X184.19 Y116.966 E.01716
G1 X183.763 Y117.236 E.01668
G1 X183.297 Y117.385 E.01615
G1 X182.883 Y117.425 E.01373
G1 X182.469 Y117.382 E.01374
G1 X182.071 Y117.258 E.01376
G1 X181.707 Y117.058 E.01371
G1 X181.389 Y116.789 E.01375
G1 X181.13 Y116.463 E.01375
G1 X180.967 Y116.158 E.01142
G1 X180.831 Y115.692 E.01603
G1 X180.813 Y115.206 E.01606
G1 X180.912 Y114.655 E.01848
G1 X181.138 Y114.195 E.01692
G1 X181.399 Y113.87 E.01376
G1 X181.719 Y113.604 E.01374
G1 X182.085 Y113.406 E.01374
G1 X182.483 Y113.285 E.01373
G1 X182.897 Y113.245 E.01373
G1 X183.311 Y113.288 E.01374
G1 X183.785 Y113.451 E.01655
G1 X184.073 Y113.612 E.01089
G1 X184.391 Y113.881 E.01375
G1 X184.65 Y114.207 E.01375
G1 X184.838 Y114.578 E.01373
G1 X184.953 Y115.011 E.01479
G1 X184.967 Y115.355 E.01137
G1 X184.577 Y115.428 F9000
;TYPE:External perimeter
G1 F1200
G1 X184.547 Y115.69 E.00871
G1 X184.381 Y116.127 E.01543
G1 X184.269 Y116.316 E.00725
G1 X183.906 Y116.689 E.01718
G1 X183.479 Y116.918 E.016
G1 X183.248 Y116.991 E.008
G1 X182.912 Y117.029 E.01116
G1 X182.576 Y117 E.01114
G1 X182.253 Y116.905 E.01112
G1 X181.954 Y116.747 E.01117
G1 X181.693 Y116.534 E.01112
G1 X181.479 Y116.273 E.01114
G1 X181.33 Y115.997 E.01036
G1 X181.211 Y115.51 E.01655
G1 X181.205 Y115.273 E.00783
G1 X181.293 Y114.767 E.01696
G1 X181.455 Y114.435 E.0122
G1 X181.662 Y114.168 E.01115
G1 X181.917 Y113.948 E.01112
G1 X182.211 Y113.783 E.01113
G1 X182.532 Y113.679 E.01114
G1 X182.868 Y113.641 E.01116
G1 X183.204 Y113.67 E.01114
G1 X183.604 Y113.804 E.01393
G1 X183.826 Y113.923 E.00832
G1 X184.087 Y114.136 E.01112
G1 X184.301 Y114.397 E.01114
G1 X184.459 Y114.695 E.01114
G1 X184.558 Y115.051 E.0122
G1 X184.574 Y115.368 E.01048
G1 X184.802 Y115.565 F9000
G1 E-3.5 F3600
;WIPE_START
G1 F7200
G1 X184.547 Y115.69 E-.15349
G1 X184.381 Y116.127 E-.22205
G1 X184.269 Y116.316 E-.10435
G1 X183.906 Y116.689 E-.24723
G1 X183.479 Y116.918 E-.23015
G1 X183.248 Y116.991 E-.11507
G1 X182.912 Y117.029 E-.16062
G1 X182.576 Y117 E-.16019
G1 X182.36 Y116.937 E-.10685
;WIPE_END
G1 X176.722 Y113.18 F9000
G1 E5 F2400
;TYPE:Perimeter
G1 F1200
G1 X176.828 Y113.233 E.00391
G1 X177.218 Y113.538 E.01635
G1 X177.54 Y113.914 E.01634
G1 X177.781 Y114.346 E.01633
G1 X177.932 Y114.818 E.01636
G1 X177.986 Y115.31 E.01634
G1 X177.942 Y115.803 E.01634
G1 X177.801 Y116.278 E.01636
G1 X177.568 Y116.715 E.01635
G1 X177.254 Y117.097 E.01633
G1 X176.87 Y117.41 E.01636
G1 X176.432 Y117.64 E.01633
G1 X175.956 Y117.779 E.01637
G1 X175.463 Y117.821 E.01634
G1 X174.971 Y117.764 E.01635
G1 X174.5 Y117.612 E.01634
G1 X174.061 Y117.362 E.01668
G1 X173.695 Y117.044 E.01601
G1 X173.392 Y116.653 E.01633
G1 X173.172 Y116.209 E.01636
G1 X173.046 Y115.733 E.01626
G1 X173.019 Y115.215 E.01713
G1 X173.115 Y114.654 E.01879
G1 X173.199 Y114.392 E.00908
G1 X173.469 Y113.906 E.01836
G1 X173.777 Y113.546 E.01564
G1 X174.13 Y113.26 E.015
G1 X174.568 Y113.03 E.01633
G1 X175.044 Y112.891 E.01637
G1 X175.542 Y112.849 E.0165
