; generated by PrusaSlicer 2.6.0+win64 on 2023-09-07 at 18:19:20 UTC

; 

; external perimeters extrusion width = 0.42mm
; perimeters extrusion width = 0.44mm
; infill extrusion width = 0.44mm
; solid infill extrusion width = 0.44mm
; top infill extrusion width = 0.44mm
; first layer extrusion width = 0.44mm

;TYPE:Custom
G90 ; use absolute coordinates
M83 ; extruder relative mode
M140 S60 ; set final bed temp
M104 S150 ; set temporary nozzle temp to prevent oozing during homing
G4 S10 ; allow partial nozzle warmup
G28 ; home all axis
G1 Z50 F240
G1 X2 Y10 F3000
M104 S210 ; set final nozzle temp
M190 S60 ; wait for bed temp to stabilize
M109 S210 ; wait for nozzle temp to stabilize
G1 Z0.28 F240
G92 E0
G1 Y140 E10 F1500 ; prime the nozzle
G1 X2.3 F5000
G92 E0
G1 Y10 E10 F1200 ; prime the nozzle
G92 E0
G21 ; set units to millimeters
G90 ; use absolute coordinates
M83 ; use relative distances for extrusion
; Filament gcode
M107
;LAYER_CHANGE
;Z:0.2
;HEIGHT:0.2
;BEFORE_LAYER_CHANGE
G92 E0
;0.2


G1 E-5 F3600
G1 Z.2 F9000
;AFTER_LAYER_CHANGE
;0.2
G1 X12.352 Y70.859
G1 E5 F2400
M204 S500
;TYPE:Skirt/Brim
;WIDTH:0.44
G1 F1200
G1 X13.352 Y70.708 E.03339
G1 X206.648 Y70.708 E6.38211
G1 X208.236 Y71.102 E.05402
G1 X209.05 Y71.703 E.03341
G1 X210.807 Y73.46 E.08204
G1 X211.651 Y74.862 E.05403
G1 X211.802 Y75.862 E.03339
G1 X211.802 Y144.138 E2.25429
G1 X211.408 Y145.726 E.05402
G1 X210.807 Y146.54 E.03341
G1 X209.05 Y148.297 E.08204
G1 X207.648 Y149.141 E.05403
G1 X206.648 Y149.292 E.03339
G1 X13.352 Y149.292 E6.38211
G1 X11.764 Y148.898 E.05402
G1 X10.95 Y148.297 E.03341
G1 X9.193 Y146.54 E.08204
G1 X8.349 Y145.138 E.05403
G1 X8.198 Y144.138 E.03339
G1 X8.198 Y75.862 E2.25429
G1 X8.592 Y74.274 E.05402
G1 X9.193 Y73.46 E.03341
G1 X10.95 Y71.703 E.08204
G1 X12.301 Y70.89 E.05206
G1 E-3.5 F3600
;WIPE_START
G1 F7200
G1 X13.352 Y70.708 E-.50665
G1 X15.443 Y70.708 E-.99335
;WIPE_END
G1 X13.78 Y74.617 F9000
G1 E5 F2400
G1 F1200
G1 X14.25 Y74.524 E.01582
G1 X205.792 Y74.528 E6.3242
G1 X206.259 Y74.631 E.01579
G1 X206.731 Y74.849 E.01717
G1 X207.458 Y75.507 E.03238
G1 X207.787 Y76.022 E.02018
G1 X207.986 Y76.726 E.02415
G1 X207.986 Y143.238 E2.19605
G1 X207.855 Y143.813 E.01947
G1 X207.499 Y144.451 E.02412
G1 X206.917 Y145.021 E.0269
G1 X206.22 Y145.383 E.02593
G1 X205.75 Y145.476 E.01582
G1 X14.252 Y145.476 E6.32275
G1 X13.677 Y145.345 E.01947
G1 X13.039 Y144.989 E.02412
G1 X12.469 Y144.407 E.0269
G1 X12.107 Y143.71 E.02593
G1 X12.014 Y143.24 E.01582
G1 X12.014 Y76.762 E2.19492
G1 X12.145 Y76.187 E.01947
G1 X12.501 Y75.549 E.02412
G1 X13.083 Y74.979 E.0269
G1 X13.727 Y74.645 E.02395
G1 X13.889 Y75 F9000
G1 F1200
G1 X14.271 Y74.921 E.01288
G1 X205.769 Y74.925 E6.32275
G1 X206.148 Y75.012 E.01284
G1 X206.533 Y75.194 E.01406
G1 X207.17 Y75.781 E.0286
G1 X207.414 Y76.162 E.01494
G1 X207.589 Y76.755 E.02041
G1 X207.589 Y143.217 E2.1944
G1 X207.493 Y143.649 E.01461
G1 X207.196 Y144.192 E.02043
G1 X206.703 Y144.686 E.02304
G1 X206.111 Y145 E.02213
G1 X205.729 Y145.079 E.01288
G1 X14.273 Y145.079 E6.32136
G1 X13.841 Y144.983 E.01461
G1 X13.298 Y144.686 E.02043
G1 X12.804 Y144.193 E.02304
G1 X12.49 Y143.601 E.02213
G1 X12.411 Y143.219 E.01288
G1 X12.411 Y76.783 E2.19354
G1 X12.507 Y76.351 E.01461
G1 X12.804 Y75.808 E.02043
G1 X13.297 Y75.314 E.02304
G1 X13.836 Y75.028 E.02015
G1 X14.001 Y75.382 F9000
G1 F1200
G1 X14.294 Y75.318 E.0099
G1 X205.746 Y75.322 E6.32123
G1 X205.997 Y75.38 E.00851
G1 X206.334 Y75.539 E.0123
G1 X206.88 Y76.053 E.02476
G1 X207.044 Y76.307 E.00998
G1 X207.192 Y76.787 E.01658
G1 X207.192 Y143.196 E2.19265
G1 X207.128 Y143.489 E.0099
G1 X206.894 Y143.933 E.01657
G1 X206.443 Y144.384 E.02106
G1 X205.999 Y144.618 E.01657
G1 X205.706 Y144.682 E.0099
G1 X14.294 Y144.682 E6.31991
G1 X14.001 Y144.618 E.0099
G1 X13.557 Y144.384 E.01657
G1 X13.106 Y143.933 E.02106
G1 X12.872 Y143.489 E.01657
G1 X12.808 Y143.196 E.0099
G1 X12.808 Y76.804 E2.19208
G1 X12.872 Y76.511 E.0099
G1 X13.106 Y76.067 E.01657
G1 X13.557 Y75.616 E.02106
G1 X13.948 Y75.41 E.01459
G1 X14.126 Y75.763 F9000
G1 F1200
G1 X14.314 Y75.715 E.00641
G1 X205.723 Y75.719 E6.31981
G1 X205.846 Y75.748 E.00417
G1 X206.134 Y75.884 E.01052
G1 X206.588 Y76.323 E.02085
G1 X206.676 Y76.457 E.00529
G1 X206.795 Y76.82 E.01261
G1 X206.795 Y143.176 E2.1909
G1 X206.761 Y143.336 E.0054
G1 X206.589 Y143.676 E.01258
G1 X206.186 Y144.079 E.01882
G1 X205.846 Y144.251 E.01258
G1 X205.687 Y144.285 E.00537
G1 X14.314 Y144.285 E6.31862
G1 X14.154 Y144.251 E.0054
G1 X13.814 Y144.079 E.01258
G1 X13.411 Y143.676 E.01882
G1 X13.239 Y143.336 E.01258
G1 X13.205 Y143.177 E.00537
G1 X13.205 Y76.823 E2.19083
G1 X13.239 Y76.664 E.00537
G1 X13.411 Y76.324 E.01258
G1 X13.814 Y75.921 E.01882
G1 X14.073 Y75.79 E.00958
G1 X14.241 Y76.146 F9000
G1 F1200
G1 X14.332 Y76.112 E.00321
G1 X205.702 Y76.119 E6.31852
G1 X205.932 Y76.228 E.0084
G1 X206.293 Y76.589 E.01686
G1 X206.398 Y76.857 E.0095
G1 X206.391 Y143.192 E2.1902
G1 X206.282 Y143.422 E.0084
G1 X205.932 Y143.772 E.01634
G1 X205.668 Y143.888 E.00952
G1 X14.298 Y143.881 E6.31852
G1 X14.068 Y143.772 E.0084
G1 X13.718 Y143.422 E.01634
G1 X13.602 Y143.158 E.00952
G1 X13.602 Y76.842 E2.18958
G1 X13.718 Y76.578 E.00952
G1 X14.068 Y76.228 E.01634
G1 X14.187 Y76.172 E.00434
G1 X14.336 Y76.532 F9000
G1 F1200
G1 X14.391 Y76.509 E.00197
G1 X205.609 Y76.509 E6.3135
G1 X205.682 Y76.54 E.00262
G1 X205.97 Y76.828 E.01345
G1 X206.001 Y76.901 E.00262
G1 X206.001 Y143.099 E2.18568
G1 X205.97 Y143.172 E.00262
G1 X205.682 Y143.46 E.01345
G1 X205.609 Y143.491 E.00262
G1 X14.391 Y143.491 E6.3135
G1 X14.318 Y143.46 E.00262
G1 X14.03 Y143.172 E.01345
G1 X13.999 Y143.099 E.00262
G1 X13.999 Y76.901 E2.18568
G1 X14.03 Y76.828 E.00262
G1 X14.289 Y76.568 E.01212
G1 X14.513 Y76.906 F9000
G1 F1200
G1 X205.487 Y76.906 E6.30545
G1 X205.604 Y77.023 E.00546
G1 X205.604 Y142.977 E2.17762
G1 X205.487 Y143.094 E.00546
G1 X14.513 Y143.094 E6.30545
G1 X14.396 Y142.977 E.00546
G1 X14.396 Y77.023 E2.17762
G1 X14.47 Y76.949 E.00346
G1 E-3.5 F3600
;WIPE_START
G1 F7200
G1 X17.628 Y76.948 E-1.5
;WIPE_END
G1 X110.054 Y115.808 F9000
G1 E5 F2400
;TYPE:Perimeter
;WIDTH:0.439999
G1 F1200
G1 X110.038 Y115.924 E.00387
G1 X109.863 Y116.409 E.01702
G1 X109.553 Y116.891 E.01892
G1 X109.152 Y117.294 E.01877
G1 X108.697 Y117.579 E.01773
G1 X108.209 Y117.754 E.01712
G1 X107.659 Y117.824 E.01831
G1 X107.113 Y117.77 E.01812
G1 X106.534 Y117.564 E.02029
G1 X106.294 Y117.437 E.00897
G1 X105.904 Y117.132 E.01635
G1 X105.582 Y116.756 E.01634
G1 X105.341 Y116.324 E.01633
G1 X105.19 Y115.852 E.01636
G1 X105.144 Y115.547 E.01018
G1 X105.158 Y114.979 E.01876
G1 X105.321 Y114.392 E.02011
G1 X105.554 Y113.955 E.01635
G1 X105.868 Y113.573 E.01633
G1 X106.252 Y113.26 E.01636
G1 X106.69 Y113.03 E.01633
G1 X107.166 Y112.891 E.01637
G1 X107.659 Y112.849 E.01634
G1 X108.151 Y112.906 E.01635
G1 X108.622 Y113.058 E.01634
G1 X109.053 Y113.302 E.01635
G1 X109.427 Y113.626 E.01634
G1 X109.752 Y114.057 E.01782
;WIDTH:0.488208
G1 X109.815 Y114.131 E.0036
;WIDTH:0.536417
G1 X109.877 Y114.205 E.00396
;WIDTH:0.584626
G1 X109.94 Y114.278 E.00434
;WIDTH:0.632835
G1 X110.002 Y114.352 E.00474
;WIDTH:0.681044
G1 X110.065 Y114.426 E.00516
G1 X110.073 Y114.32 E.00564
;WIDTH:0.632835
G1 X110.082 Y114.215 E.00517
;WIDTH:0.584626
G1 X110.091 Y114.109 E.00479
;WIDTH:0.536417
G1 X110.099 Y114.004 E.00432
;WIDTH:0.488208
G1 X110.108 Y113.898 E.00394
;WIDTH:0.439999
G1 X110.12 Y113.393 E.01668
G1 X110.165 Y112.892 E.01661
G1 X110.326 Y112.261 E.0215
G1 X110.676 Y111.488 E.02802
G1 X111.173 Y110.8 E.02802
G1 X111.795 Y110.224 E.02799
G1 X112.52 Y109.783 E.02802
G1 X113.318 Y109.494 E.02802
G1 X114.157 Y109.37 E.028
G1 X115.004 Y109.413 E.028
G1 X115.547 Y109.546 E.01846
G1 X116.01 Y109.696 E.01607
G1 X116.59 Y109.993 E.02151
G1 X117.265 Y110.507 E.02801
G1 X117.773 Y111.104 E.02588
G1 X118.048 Y111.488 E.01559
G1 X118.331 Y112.075 E.02152
G1 X118.553 Y112.871 E.02728
G1 X118.616 Y113.641 E.02551
G1 X118.592 Y114.064 E.01399
G1 X118.514 Y114.583 E.01733
G1 X118.291 Y115.251 E.02325
G1 X118.084 Y115.68 E.01573
G1 X117.817 Y116.118 E.01694
G1 X117.319 Y116.684 E.02489
G1 X116.901 Y117.031 E.01794
G1 X116.489 Y117.321 E.01664
G1 X115.812 Y117.631 E.02458
G1 X114.99 Y117.839 E.028
G1 X114.142 Y117.88 E.02803
G1 X113.304 Y117.752 E.02799
G1 X112.507 Y117.46 E.02803
G1 X111.962 Y117.119 E.02123
G1 X111.47 Y116.753 E.02025
G1 X111.026 Y116.276 E.02152
G1 X110.735 Y115.837 E.01739
G1 X110.482 Y115.386 E.01707
;WIDTH:0.448364
G1 X110.399 Y115.17 E.0078
;WIDTH:0.489568
G1 X110.354 Y115.105 E.00294
;WIDTH:0.530772
G1 X110.308 Y115.041 E.0032
;WIDTH:0.571975
G1 X110.263 Y114.976 E.00348
;WIDTH:0.613179
G1 X110.217 Y114.911 E.00378
;WIDTH:0.654382
G1 X110.172 Y114.847 E.00398
G1 X110.159 Y114.963 E.00593
;WIDTH:0.611506
G1 X110.146 Y115.08 E.00557
;WIDTH:0.568629
G1 X110.133 Y115.197 E.00515
;WIDTH:0.525753
G1 X110.12 Y115.314 E.00473
;WIDTH:0.482876
G1 X110.107 Y115.431 E.00431
;WIDTH:0.439999
G1 X110.062 Y115.749 E.0106
G1 X109.666 Y115.745 F9000
G1 F1200
G1 X109.502 Y116.239 E.01719
G1 X109.219 Y116.676 E.01719
G1 X108.834 Y117.04 E.01749
G1 X108.427 Y117.264 E.01534
G1 X108.029 Y117.385 E.01373
G1 X107.615 Y117.425 E.01373
G1 X107.159 Y117.369 E.01517
G1 X106.67 Y117.191 E.01718
G1 X106.22 Y116.887 E.01793
G1 X105.921 Y116.549 E.0149
G1 X105.714 Y116.188 E.01374
G1 X105.583 Y115.793 E.01374
G1 X105.537 Y115.492 E.01005
G1 X105.565 Y114.965 E.01742
G1 X105.679 Y114.565 E.01373
G1 X105.87 Y114.195 E.01375
G1 X106.131 Y113.87 E.01376
G1 X106.451 Y113.604 E.01374
G1 X106.817 Y113.406 E.01374
G1 X107.215 Y113.285 E.01373
G1 X107.629 Y113.245 E.01373
G1 X108.043 Y113.288 E.01374
G1 X108.44 Y113.412 E.01373
G1 X108.805 Y113.612 E.01374
G1 X109.123 Y113.881 E.01375
G1 X109.403 Y114.247 E.01522
G1 X109.57 Y114.578 E.01224
G1 X109.682 Y114.979 E.01375
G1 X109.711 Y115.394 E.01374
G1 X109.674 Y115.686 E.00972
G1 X109.279 Y115.69 F9000
;TYPE:External perimeter
G1 F1200
G1 X109.168 Y116.024 E.01162
G1 X108.884 Y116.463 E.01726
G1 X108.595 Y116.722 E.01281
G1 X108.301 Y116.887 E.01113
G1 X107.98 Y116.991 E.01114
G1 X107.644 Y117.029 E.01116
G1 X107.205 Y116.963 E.01466
G1 X106.758 Y116.792 E.0158
G1 X106.486 Y116.592 E.01115
G1 X106.26 Y116.342 E.01113
G1 X106.087 Y116.052 E.01115
G1 X105.975 Y115.734 E.01113
G1 X105.931 Y115.437 E.00991
G1 X105.95 Y115.063 E.01236
G1 X106.037 Y114.737 E.01114
G1 X106.187 Y114.435 E.01113
G1 X106.394 Y114.168 E.01115
G1 X106.649 Y113.948 E.01112
G1 X106.943 Y113.783 E.01113
G1 X107.264 Y113.679 E.01114
G1 X107.6 Y113.641 E.01116
G1 X107.936 Y113.67 E.01114
G1 X108.259 Y113.765 E.01112
G1 X108.558 Y113.923 E.01117
G1 X108.819 Y114.136 E.01112
G1 X109.055 Y114.437 E.01263
G1 X109.242 Y114.862 E.01533
G1 X109.316 Y115.355 E.01646
G1 X109.285 Y115.63 E.00914
G1 X109.542 Y115.923 F9000
G1 X110.729 Y114.887
;TYPE:Perimeter
G1 F1200
G1 X110.616 Y114.587 E.01058
G1 X110.506 Y113.877 E.02372
G1 X110.531 Y113.124 E.02488
G1 X110.702 Y112.391 E.02485
G1 X111.034 Y111.661 E.02648
G1 X111.489 Y111.04 E.02542
G1 X112.058 Y110.522 E.02541
G1 X112.719 Y110.127 E.02542
G1 X113.444 Y109.871 E.02539
G1 X114.206 Y109.764 E.02541
G1 X114.975 Y109.809 E.02543
G1 X115.719 Y110.006 E.02541
G1 X116.409 Y110.347 E.02541
G1 X117.018 Y110.818 E.02542
G1 X117.463 Y111.351 E.02293
G1 X117.69 Y111.661 E.01269
G1 X117.973 Y112.248 E.02152
G1 X118.169 Y112.969 E.02467
G1 X118.219 Y113.661 E.02291
G1 X118.199 Y114.004 E.01134
G1 X118.121 Y114.522 E.0173
G1 X117.918 Y115.115 E.02069
G1 X117.746 Y115.473 E.01311
G1 X117.478 Y115.911 E.01695
G1 X117.028 Y116.413 E.02226
G1 X116.428 Y116.883 E.02516
G1 X116.099 Y117.066 E.01243
G1 X115.633 Y117.276 E.01688
G1 X114.901 Y117.452 E.02486
G1 X114.132 Y117.483 E.02541
G1 X113.373 Y117.361 E.02538
G1 X112.652 Y117.091 E.02542
G1 X112.186 Y116.791 E.0183
G1 X111.761 Y116.483 E.01733
G1 X111.318 Y116.005 E.02152
G1 X110.936 Y115.404 E.02351
G1 X110.751 Y114.943 E.0164
G1 X111 Y114.484 F9000
;TYPE:External perimeter
G1 F1200
G1 X110.898 Y113.818 E.02225
G1 X110.928 Y113.144 E.02228
G1 X111.087 Y112.489 E.02225
G1 X111.392 Y111.833 E.02389
G1 X111.806 Y111.28 E.02281
G1 X112.321 Y110.82 E.0228
G1 X112.917 Y110.471 E.0228
G1 X113.571 Y110.247 E.02282
G1 X114.256 Y110.157 E.02281
G1 X114.945 Y110.205 E.0228
G1 X115.611 Y110.389 E.02281
G1 X116.228 Y110.7 E.02281
G1 X116.77 Y111.128 E.0228
G1 X117.152 Y111.599 E.02002
G1 X117.332 Y111.833 E.00975
G1 X117.615 Y112.42 E.02152
G1 X117.784 Y113.067 E.02208
G1 X117.823 Y113.681 E.02031
G1 X117.729 Y114.462 E.02597
G1 X117.545 Y114.979 E.01812
G1 X117.407 Y115.266 E.01051
G1 X117.139 Y115.704 E.01695
G1 X116.737 Y116.143 E.01965
G1 X116.196 Y116.56 E.02255
G1 X115.486 Y116.907 E.02609
G1 X114.813 Y117.065 E.02282
G1 X114.122 Y117.086 E.02283
G1 X113.441 Y116.97 E.02281
G1 X112.797 Y116.721 E.0228
G1 X112.163 Y116.295 E.02522
G1 X111.673 Y115.804 E.0229
G1 X111.275 Y115.197 E.02397
G1 X111.02 Y114.54 E.02327
G1 X110.614 Y114.379 F9000
G1 X110.172 Y114.847
;TYPE:Perimeter
;WIDTH:0.681044
G1 F1200
G1 X110.065 Y114.426 E.02305
G1 E-3.5 F3600
;WIPE_START
G1 F7200
G1 X110.172 Y114.847 E-.20633
;WIPE_END
G1 E-1.29367 F3600
G1 X102.51 Y116.679 F9000
G1 E5 F2400
;WIDTH:0.439999
G1 F1200
G1 X102.287 Y116.993 E.01272
G1 X101.913 Y117.335 E.01673
G1 X101.466 Y117.599 E.01714
G1 X100.95 Y117.769 E.01794
G1 X100.395 Y117.821 E.0184
G1 X99.903 Y117.764 E.01635
G1 X99.432 Y117.612 E.01634
G1 X98.973 Y117.346 E.01752
G1 X98.627 Y117.044 E.01516
G1 X98.324 Y116.653 E.01633
G1 X98.104 Y116.209 E.01636
G1 X97.978 Y115.733 E.01626
G1 X97.952 Y115.214 E.01716
G1 X98.047 Y114.654 E.01875
G1 X98.131 Y114.392 E.00908
G1 X98.313 Y114.029 E.01341
G1 X98.636 Y113.613 E.01739
G1 X99.031 Y113.279 E.01708
G1 X99.5 Y113.03 E.01753
G1 X99.976 Y112.891 E.01637
G1 X100.469 Y112.849 E.01634
G1 X100.964 Y112.907 E.01646
G1 X101.432 Y113.058 E.01624
G1 X101.863 Y113.302 E.01635
G1 X102.237 Y113.626 E.01634
G1 X102.54 Y114.017 E.01633
G1 X102.76 Y114.461 E.01636
G1 X102.887 Y114.94 E.01636
G1 X102.916 Y115.439 E.0165
G1 X102.816 Y116.019 E.01943
G1 X102.603 Y116.546 E.01877
G1 X102.544 Y116.63 E.00339
G1 X102.215 Y116.412 F9000
G1 F1200
G1 X102.184 Y116.475 E.00232
G1 X101.923 Y116.8 E.01376
G1 X101.603 Y117.066 E.01374
G1 X101.147 Y117.294 E.01683
G1 X100.839 Y117.385 E.0106
G1 X100.425 Y117.425 E.01373
G1 X100.011 Y117.382 E.01374
G1 X99.614 Y117.258 E.01373
G1 X99.221 Y117.036 E.0149
G1 X98.931 Y116.789 E.01258
G1 X98.672 Y116.463 E.01375
G1 X98.484 Y116.092 E.01373
G1 X98.373 Y115.692 E.01371
G1 X98.349 Y115.243 E.01485
G1 X98.439 Y114.722 E.01746
G1 X98.65 Y114.239 E.0174
G1 X98.97 Y113.845 E.01676
G1 X99.261 Y113.604 E.01248
G1 X99.627 Y113.406 E.01374
G1 X100.025 Y113.285 E.01373
G1 X100.439 Y113.245 E.01373
G1 X100.857 Y113.289 E.01388
G1 X101.251 Y113.412 E.01363
G1 X101.615 Y113.612 E.01371
G1 X101.933 Y113.881 E.01375
G1 X102.192 Y114.207 E.01375
G1 X102.38 Y114.578 E.01373
G1 X102.492 Y114.979 E.01375
G1 X102.511 Y115.461 E.01593
G1 X102.41 Y116.013 E.01853
G1 X102.241 Y116.358 E.01268
G1 X101.867 Y116.235 F9000
;TYPE:External perimeter
G1 F1200
G1 X101.66 Y116.502 E.01115
G1 X101.405 Y116.722 E.01112
G1 X101.021 Y116.918 E.01423
G1 X100.79 Y116.991 E.008
G1 X100.454 Y117.029 E.01116
G1 X100.118 Y117 E.01114
G1 X99.795 Y116.905 E.01112
G1 X99.469 Y116.725 E.0123
G1 X99.111 Y116.386 E.01628
G1 X98.863 Y115.975 E.01585
G1 X98.768 Y115.652 E.01112
G1 X98.74 Y115.311 E.0113
G1 X98.83 Y114.789 E.01749
G1 X98.987 Y114.45 E.01233
G1 X99.232 Y114.143 E.01297
G1 X99.459 Y113.948 E.00988
G1 X99.753 Y113.783 E.01113
G1 X100.074 Y113.679 E.01114
G1 X100.41 Y113.641 E.01116
G1 X100.749 Y113.671 E.01124
G1 X101.069 Y113.765 E.01101
G1 X101.368 Y113.923 E.01117
G1 X101.629 Y114.136 E.01112
G1 X101.843 Y114.397 E.01114
G1 X102.056 Y114.873 E.01722
G1 X102.126 Y115.356 E.01611
G1 X102.034 Y115.881 E.0176
G1 X101.893 Y116.181 E.01094
G1 X102.033 Y116.529 F9000
G1 E-3.5 F3600
;WIPE_START
G1 F7200
G1 X101.66 Y116.502 E-.18841
G1 X101.405 Y116.722 E-.15997
G1 X101.021 Y116.918 E-.20479
G1 X100.79 Y116.991 E-.11507
